;FilamentType:PLA
;MachineType:ENTINA TINA2
;Extruder0Temperature:200
;BedTemperature:40
;InfillDensity:90
;FLAVOR:Marlin
;TIME:431
;FilamentUsed: 332.399
;Layer height: 0.15
;MINX:38.9
;MINY:33.667
;MINZ:0.3
;MAXX:60.551
;MAXY:86.331
;MAXZ:3
;Generated with Cura_SteamEngine 4.10.0
M82 ;absolute extrusion mode
;(**** start.gcode for TINA2****)
M104 S150
G28 Z
G28 X Y; Home extruder
G1 X55 Y55 F1000
G1 Z10 F200
G29
G1 Z15 F100
M107 ; Turn off fan
G90 ; Absolute positioning
M82 ; Extruder in absolute mode
M109 S215
G92 E0 ; Reset extruder position
G1 X90 Y6 Z0.27 F2000
G1 X20 Y6 Z0.27 E15 F1000 
G92 E0 ; Reset extruder position

M203 Z5
G92 E0
G92 E0
G1 F2100 E-3
;LAYER_COUNT:19
;LAYER:0
M107
G0 F3600 X39.896 Y34.81 Z0.3
;TYPE:SKIRT
G1 F2100 E0
G1 F1800 X40.293 Y34.449 E0.02543
G1 X40.739 Y34.151 E0.05085
G1 X41.224 Y33.923 E0.07626
G1 X41.738 Y33.769 E0.10169
G1 X42.407 Y33.687 E0.13363
G1 X42.825 Y33.677 E0.15345
G1 X56.285 Y33.667 E0.79139
G1 X56.985 Y33.676 E0.82457
G1 X57.52 Y33.723 E0.85003
G1 X58.041 Y33.849 E0.87543
G1 X58.538 Y34.05 E0.90084
G1 X58.999 Y34.324 E0.92626
G1 X59.415 Y34.663 E0.95169
G1 X59.776 Y35.059 E0.97709
G1 X60.073 Y35.505 E1.00249
G1 X60.302 Y35.991 E1.02795
G1 X60.455 Y36.504 E1.05332
G1 X60.537 Y37.165 E1.08489
G1 X60.548 Y37.568 E1.104
G1 X60.551 Y82.041 E3.21183
G1 X60.542 Y82.768 E3.24629
G1 X60.495 Y83.302 E3.2717
G1 X60.37 Y83.823 E3.29709
G1 X60.168 Y84.32 E3.32252
G1 X59.895 Y84.782 E3.34795
G1 X59.557 Y85.198 E3.37335
G1 X59.16 Y85.559 E3.39879
G1 X58.714 Y85.857 E3.42421
G1 X58.229 Y86.085 E3.44961
G1 X57.715 Y86.239 E3.47504
G1 X57.046 Y86.321 E3.50699
G1 X56.664 Y86.331 E3.5251
G1 X43.161 Y86.323 E4.16508
G1 X42.459 Y86.313 E4.19836
G1 X41.925 Y86.265 E4.22377
G1 X41.403 Y86.139 E4.24922
G1 X40.907 Y85.936 E4.27462
G1 X40.446 Y85.662 E4.30004
G1 X40.03 Y85.323 E4.32547
G1 X39.67 Y84.926 E4.35087
G1 X39.373 Y84.479 E4.37631
G1 X39.145 Y83.994 E4.40171
G1 X38.993 Y83.48 E4.42711
G1 X38.911 Y82.814 E4.45892
G1 X38.9 Y82.358 E4.48053
G1 X38.9 Y37.928 E6.58633
G1 X38.909 Y37.239 E6.61898
G1 X38.956 Y36.705 E6.64439
G1 X39.082 Y36.183 E6.66984
G1 X39.284 Y35.687 E6.69523
G1 X39.557 Y35.225 E6.72066
G1 X39.896 Y34.81 E6.74606
G0 F3600 X40.288 Y34.982
G1 F1800 X40.679 Y34.661 E6.77003
G1 X41.115 Y34.405 E6.794
G1 X41.586 Y34.222 E6.81795
G1 X42.08 Y34.115 E6.8419
G1 X42.738 Y34.078 E6.87314
G1 X56.28 Y34.067 E7.51497
G1 X56.98 Y34.076 E7.54815
G1 X57.484 Y34.123 E7.57214
G1 X57.973 Y34.248 E7.59606
G1 X58.437 Y34.449 E7.62003
G1 X58.864 Y34.72 E7.644
G1 X59.243 Y35.055 E7.66797
G1 X59.564 Y35.445 E7.69191
G1 X59.819 Y35.882 E7.71589
G1 X60.003 Y36.353 E7.73986
G1 X60.11 Y36.847 E7.76382
G1 X60.146 Y37.469 E7.79335
G1 X60.148 Y37.568 E7.79804
G1 X60.151 Y82.036 E9.90563
G1 X60.142 Y82.763 E9.94009
G1 X60.096 Y83.266 E9.96403
G1 X59.971 Y83.756 E9.988
G1 X59.77 Y84.22 E10.01196
G1 X59.499 Y84.647 E10.03593
G1 X59.164 Y85.026 E10.05991
G1 X58.774 Y85.347 E10.08385
G1 X58.338 Y85.603 E10.10781
G1 X57.867 Y85.786 E10.13176
G1 X57.373 Y85.894 E10.15573
G1 X56.759 Y85.93 E10.18488
G1 X43.166 Y85.923 E10.82913
G1 X42.464 Y85.913 E10.8624
G1 X41.961 Y85.866 E10.88635
G1 X41.471 Y85.74 E10.91033
G1 X41.008 Y85.538 E10.93427
G1 X40.581 Y85.267 E10.95824
G1 X40.203 Y84.931 E10.98221
G1 X39.883 Y84.54 E11.00615
G1 X39.628 Y84.103 E11.03013
G1 X39.445 Y83.632 E11.05408
G1 X39.338 Y83.138 E11.07804
G1 X39.301 Y82.448 E11.11079
G1 X39.3 Y37.933 E13.22061
G1 X39.309 Y37.244 E13.25327
G1 X39.356 Y36.741 E13.27721
G1 X39.481 Y36.251 E13.30118
G1 X39.682 Y35.787 E13.32515
G1 X39.953 Y35.36 E13.34912
G1 X40.288 Y34.982 E13.37305
G1 F2100 E10.37305
;MESH:RTO_Cart_LCD.stl
G0 F3600 X43.113 Y36.612
G0 X43.114 Y37.891
G0 X43.33 Y46.33
G0 X43.4 Y46.4
;TYPE:WALL-INNER
G1 F2100 E13.37305
G1 F1320 X43.4 Y73.6 E14.66222
G1 X54.6 Y73.6 E15.19305
G1 X54.6 Y46.4 E16.48221
G1 X43.4 Y46.4 E17.01304
G0 F3600 X43.33 Y46.33
G0 X43.372 Y73.628
G0 X56.281 Y82.062
G0 X56.351 Y82.132
G1 F1320 X56.151 Y82.132 E17.02252
G1 X43.1 Y82.123 E17.64108
G1 X43.1 Y73.6 E18.04504
G1 X43.1 Y46.4 E19.01191
G1 X43.1 Y37.877 E19.41586
G1 X56.149 Y37.866 E20.03433
G1 X56.349 Y37.866 E20.04381
G1 X56.349 Y38.066 E20.04995
G1 X56.351 Y81.932 E22.12901
G1 X56.351 Y82.132 E22.13514
G0 F3600 X56.751 Y82.532
;TYPE:WALL-OUTER
G1 F1320 X56.551 Y82.532 E22.14462
G1 X42.7 Y82.523 E22.8011
G1 X42.7 Y37.477 E24.93609
G1 X56.549 Y37.466 E25.59247
G1 X56.749 Y37.466 E25.60195
G1 X56.749 Y37.666 E25.60809
G1 X56.751 Y82.332 E27.72506
G1 X56.751 Y82.532 E27.7312
G0 F3600 X56.551 Y82.532
G0 X56.281 Y82.062
G0 X43.372 Y73.628
G0 X43.372 Y46.372
G0 X43.8 Y46.8
G1 F1320 X43.8 Y73.2 E28.98245
G1 X54.2 Y73.2 E29.47536
G1 X54.2 Y46.8 E30.72661
G1 X43.8 Y46.8 E31.21952
G0 F3600 X43.8 Y47
G0 X43.3 Y47
G0 X43.49 Y46.01
;TYPE:SKIN
G1 F1320 X43.49 Y38.267 E31.58651
G1 X55.959 Y38.256 E32.17749
G1 X55.961 Y81.742 E34.23854
G1 X43.49 Y81.733 E34.82961
G1 X43.49 Y73.99 E35.19659
G1 X54.99 Y73.99 E35.74164
G1 X54.99 Y46.01 E37.06777
G1 X43.49 Y46.01 E37.61282
G0 F3600 X55.407 Y38.436
G1 F1320 X55.779 Y38.808 E37.63776
G0 F3600 X55.779 Y39.374
G1 F1320 X54.842 Y38.437 E37.70056
G0 F3600 X54.276 Y38.437
G1 F1320 X55.779 Y39.94 E37.80131
G0 F3600 X55.779 Y40.505
G1 F1320 X53.711 Y38.438 E37.93989
G0 F3600 X53.146 Y38.439
G1 F1320 X55.779 Y41.071 E38.11634
G0 F3600 X55.779 Y41.637
G1 F1320 X52.581 Y38.439 E38.33069
G0 F3600 X52.016 Y38.439
G1 F1320 X55.779 Y42.202 E38.58292
G0 F3600 X55.779 Y42.768
G1 F1320 X51.451 Y38.44 E38.87301
G0 F3600 X50.886 Y38.441
G1 F1320 X55.779 Y43.334 E39.20098
G0 F3600 X55.779 Y43.9
G1 F1320 X50.32 Y38.441 E39.56688
G0 F3600 X49.755 Y38.441
G1 F1320 X55.779 Y44.465 E39.97066
G0 F3600 X55.779 Y45.031
G1 F1320 X49.19 Y38.442 E40.4123
G0 F3600 X48.624 Y38.442
G1 F1320 X55.779 Y45.597 E40.89188
G0 F3600 X55.779 Y46.162
G1 F1320 X48.059 Y38.443 E41.4093
G0 F3600 X47.494 Y38.443
G1 F1320 X54.88 Y45.829 E41.90437
G0 F3600 X55.169 Y46.118
G1 F1320 X55.779 Y46.728 E41.94526
G0 F3600 X55.779 Y47.294
G1 F1320 X55.169 Y46.683 E41.98618
G0 F3600 X55.169 Y47.249
G1 F1320 X55.779 Y47.859 E42.02706
G0 F3600 X55.779 Y48.425
G1 F1320 X55.169 Y47.815 E42.06795
G0 F3600 X55.169 Y48.38
G1 F1320 X55.779 Y48.991 E42.10887
G0 F3600 X55.78 Y49.557
G1 F1320 X55.169 Y48.946 E42.14982
G0 F3600 X55.169 Y49.512
G1 F1320 X55.78 Y50.123 E42.19078
G0 F3600 X55.78 Y50.688
G1 F1320 X55.169 Y50.078 E42.2317
G0 F3600 X55.169 Y50.643
G1 F1320 X55.78 Y51.254 E42.27265
G0 F3600 X55.78 Y51.82
G1 F1320 X55.169 Y51.209 E42.31361
G0 F3600 X55.169 Y51.775
G1 F1320 X55.78 Y52.386 E42.35456
G0 F3600 X55.78 Y52.951
G1 F1320 X55.169 Y52.34 E42.39551
G0 F3600 X55.169 Y52.906
G1 F1320 X55.78 Y53.517 E42.43647
G0 F3600 X55.78 Y54.083
G1 F1320 X55.169 Y53.472 E42.47742
G0 F3600 X55.169 Y54.037
G1 F1320 X55.78 Y54.648 E42.51838
G0 F3600 X55.78 Y55.214
G1 F1320 X55.169 Y54.603 E42.55933
G0 F3600 X55.169 Y55.169
G1 F1320 X55.78 Y55.78 E42.60028
G0 F3600 X55.78 Y56.345
G1 F1320 X55.169 Y55.734 E42.64124
G0 F3600 X55.169 Y56.3
G1 F1320 X55.78 Y56.911 E42.68219
G0 F3600 X55.78 Y57.477
G1 F1320 X55.169 Y56.866 E42.72314
G0 F3600 X55.169 Y57.431
G1 F1320 X55.78 Y58.042 E42.7641
G0 F3600 X55.78 Y58.608
G1 F1320 X55.169 Y57.997 E42.80505
G0 F3600 X55.169 Y58.563
G1 F1320 X55.78 Y59.174 E42.84601
G0 F3600 X55.78 Y59.739
G1 F1320 X55.169 Y59.128 E42.88696
G0 F3600 X55.169 Y59.694
G1 F1320 X55.78 Y60.306 E42.92795
G0 F3600 X55.78 Y60.871
G1 F1320 X55.169 Y60.26 E42.9689
G0 F3600 X55.169 Y60.826
G1 F1320 X55.78 Y61.437 E43.00986
G0 F3600 X55.78 Y62.003
G1 F1320 X55.169 Y61.391 E43.05084
G0 F3600 X55.169 Y61.957
G1 F1320 X55.78 Y62.569 E43.09183
G0 F3600 X55.78 Y63.134
G1 F1320 X55.169 Y62.523 E43.13278
G0 F3600 X55.169 Y63.088
G1 F1320 X55.78 Y63.7 E43.17377
G0 F3600 X55.78 Y64.266
G1 F1320 X55.169 Y63.654 E43.21476
G0 F3600 X55.169 Y64.22
G1 F1320 X55.78 Y64.831 E43.25571
G0 F3600 X55.78 Y65.397
G1 F1320 X55.169 Y64.785 E43.2967
G0 F3600 X55.169 Y65.351
G1 F1320 X55.78 Y65.963 E43.33769
G0 F3600 X55.78 Y66.528
G1 F1320 X55.169 Y65.917 E43.37864
G0 F3600 X55.169 Y66.482
G1 F1320 X55.78 Y67.094 E43.41963
G0 F3600 X55.78 Y67.66
G1 F1320 X55.169 Y67.048 E43.46062
G0 F3600 X55.169 Y67.614
G1 F1320 X55.78 Y68.225 E43.50157
G0 F3600 X55.78 Y68.791
G1 F1320 X55.169 Y68.179 E43.54256
G0 F3600 X55.169 Y68.745
G1 F1320 X55.78 Y69.357 E43.58355
G0 F3600 X55.78 Y69.922
G1 F1320 X55.169 Y69.311 E43.6245
G0 F3600 X55.169 Y69.876
G1 F1320 X55.78 Y70.488 E43.66549
G0 F3600 X55.781 Y71.055
G1 F1320 X55.169 Y70.442 E43.70654
G0 F3600 X55.169 Y71.008
G1 F1320 X55.781 Y71.62 E43.74756
G0 F3600 X55.781 Y72.186
G1 F1320 X55.169 Y71.574 E43.78858
G0 F3600 X55.169 Y72.139
G1 F1320 X55.781 Y72.752 E43.82964
G0 F3600 X55.781 Y73.317
G1 F1320 X55.169 Y72.705 E43.87066
G0 F3600 X55.169 Y73.271
G1 F1320 X55.781 Y73.883 E43.91168
G0 F3600 X55.781 Y74.449
G1 F1320 X55.169 Y73.836 E43.95273
G0 F3600 X54.936 Y74.169
G1 F1320 X55.781 Y75.014 E44.00937
G0 F3600 X55.781 Y75.58
G1 F1320 X54.37 Y74.169 E44.10395
G0 F3600 X53.805 Y74.169
G1 F1320 X55.781 Y76.146 E44.23643
G0 F3600 X55.781 Y76.711
G1 F1320 X53.239 Y74.169 E44.40681
G0 F3600 X52.673 Y74.169
G1 F1320 X55.781 Y77.277 E44.61513
G0 F3600 X55.781 Y77.843
G1 F1320 X52.108 Y74.169 E44.86136
G0 F3600 X51.542 Y74.169
G1 F1320 X55.781 Y78.408 E45.14549
G0 F3600 X55.781 Y78.974
G1 F1320 X50.976 Y74.169 E45.46756
G0 F3600 X50.411 Y74.169
G1 F1320 X55.781 Y79.54 E45.82753
G0 F3600 X55.781 Y80.106
G1 F1320 X49.845 Y74.169 E46.22544
G0 F3600 X49.279 Y74.169
G1 F1320 X55.781 Y80.671 E46.66125
G0 F3600 X55.781 Y81.237
G1 F1320 X48.714 Y74.169 E47.13497
G0 F3600 X48.148 Y74.169
G1 F1320 X55.538 Y81.56 E47.63034
G0 F3600 X54.973 Y81.56
G1 F1320 X47.582 Y74.169 E48.12574
G0 F3600 X47.016 Y74.169
G1 F1320 X54.406 Y81.559 E48.62107
G0 F3600 X53.841 Y81.559
G1 F1320 X46.451 Y74.169 E49.11641
G0 F3600 X45.885 Y74.169
G1 F1320 X53.274 Y81.559 E49.61171
G0 F3600 X52.708 Y81.558
G1 F1320 X45.319 Y74.169 E50.10698
G0 F3600 X44.754 Y74.169
G1 F1320 X52.142 Y81.558 E50.60221
G0 F3600 X51.576 Y81.557
G1 F1320 X44.188 Y74.169 E51.09741
G0 F3600 X43.67 Y74.217
G1 F1320 X51.01 Y81.557 E51.58939
G0 F3600 X50.444 Y81.556
G1 F1320 X43.67 Y74.782 E52.04344
G0 F3600 X43.67 Y75.348
G1 F1320 X49.878 Y81.556 E52.45955
G0 F3600 X49.312 Y81.556
G1 F1320 X43.67 Y75.914 E52.83772
G0 F3600 X43.67 Y76.479
G1 F1320 X48.746 Y81.556 E53.17798
G0 F3600 X48.18 Y81.555
G1 F1320 X43.67 Y77.045 E53.48028
G0 F3600 X43.67 Y77.611
G1 F1320 X47.613 Y81.554 E53.74457
G0 F3600 X47.048 Y81.554
G1 F1320 X43.67 Y78.177 E53.97095
G0 F3600 X43.67 Y78.742
G1 F1320 X46.481 Y81.554 E54.1594
G0 F3600 X45.915 Y81.554
G1 F1320 X43.67 Y79.308 E54.30991
G0 F3600 X43.67 Y79.874
G1 F1320 X45.349 Y81.553 E54.42245
G0 F3600 X44.783 Y81.553
G1 F1320 X43.67 Y80.439 E54.49708
G0 F3600 X43.67 Y81.005
G1 F1320 X44.217 Y81.552 E54.53375
G0 F3600 X43.372 Y73.628
G0 X43.372 Y46.372
G0 X44.132 Y45.829
G1 F1320 X43.669 Y45.366 E54.56478
G0 F3600 X43.669 Y44.8
G1 F1320 X44.698 Y45.829 E54.63375
G0 F3600 X45.264 Y45.829
G1 F1320 X43.669 Y44.235 E54.74063
G0 F3600 X43.669 Y43.669
G1 F1320 X45.829 Y45.829 E54.88541
G0 F3600 X46.395 Y45.829
G1 F1320 X43.669 Y43.103 E55.06813
G0 F3600 X43.669 Y42.538
G1 F1320 X46.961 Y45.829 E55.28875
G0 F3600 X47.526 Y45.829
G1 F1320 X43.669 Y41.972 E55.54727
G0 F3600 X43.669 Y41.406
G1 F1320 X48.092 Y45.829 E55.84374
G0 F3600 X48.658 Y45.829
G1 F1320 X43.669 Y40.841 E56.1781
G0 F3600 X43.669 Y40.275
G1 F1320 X49.223 Y45.829 E56.55038
G0 F3600 X49.789 Y45.829
G1 F1320 X43.669 Y39.709 E56.96058
G0 F3600 X43.669 Y39.144
G1 F1320 X50.355 Y45.829 E57.4087
G0 F3600 X50.92 Y45.829
G1 F1320 X43.669 Y38.578 E57.89472
G0 F3600 X44.103 Y38.446
M104 S200
G1 F1320 X51.486 Y45.829 E58.38958
G0 F3600 X52.052 Y45.829
G1 F1320 X44.668 Y38.446 E58.88448
G0 F3600 X45.234 Y38.446
G1 F1320 X52.617 Y45.829 E59.37934
G0 F3600 X53.183 Y45.829
G1 F1320 X45.799 Y38.445 E59.87428
G0 F3600 X46.364 Y38.444
G1 F1320 X53.749 Y45.829 E60.36927
G0 F3600 X54.314 Y45.829
G1 F1320 X46.929 Y38.443 E60.86431
G1 X46.859 Y38.373
;MESH:NONMESH
G0 F600 X46.859 Y38.373 Z0.45
G0 F3600 X43.33 Y46.33
G0 X43.4 Y46.4
;TIME_ELAPSED:65.068502
;LAYER:1
M106 S255
;TYPE:WALL-INNER
;MESH:RTO_Cart_LCD.stl
G1 F3060 X43.4 Y73.6 E61.50889
G1 X54.6 Y73.6 E61.7743
G1 X54.6 Y46.4 E62.41889
G1 X43.4 Y46.4 E62.6843
G0 F3750 X43.33 Y46.33
G0 X43.372 Y73.628
G0 X56.506 Y82.247
G0 X56.576 Y82.317
G1 F3060 X45.219 Y82.318 E62.95344
G1 X43.1 Y82.316 E63.00365
G1 X43.1 Y73.6 E63.2102
G1 X43.1 Y46.4 E63.69364
G1 X43.1 Y37.883 E63.89548
G1 X43.1 Y37.683 E63.90021
G1 X43.3 Y37.683 E63.90328
G1 X56.576 Y37.689 E64.2179
G1 X56.576 Y82.317 E65.27548
G0 F3750 X56.976 Y82.717
;TYPE:WALL-OUTER
G1 F1860 X45.219 Y82.718 E65.5541
G1 X42.7 Y82.716 E65.61379
G1 X42.7 Y37.483 E66.68572
G1 X42.7 Y37.283 E66.69046
G1 X42.9 Y37.283 E66.69353
G1 X56.976 Y37.289 E67.0271
G1 X56.976 Y82.717 E68.10364
G0 F3750 X56.776 Y82.717
G0 X56.506 Y82.247
G0 X43.372 Y73.628
G0 X43.372 Y46.372
G0 X43.8 Y46.8
G1 F1860 X43.8 Y73.2 E68.72927
G1 X54.2 Y73.2 E68.97572
G1 X54.2 Y46.8 E69.60135
G1 X43.8 Y46.8 E69.84781
G0 F3750 X43.8 Y47
G0 X43.3 Y47
G0 X43.49 Y46.01
;TYPE:SKIN
G1 F1560 X43.49 Y38.073 E70.0359
G1 X56.186 Y38.079 E70.33676
G1 X56.186 Y81.927 E71.37587
G1 X45.219 Y81.928 E71.63576
G1 X43.49 Y81.926 E71.67673
G1 X43.49 Y73.99 E71.8648
G1 X54.99 Y73.99 E72.13733
G1 X54.99 Y46.01 E72.80039
G1 X43.49 Y46.01 E73.07292
G0 F3750 X43.67 Y38.354
G1 F1560 X43.771 Y38.253 E73.0763
G0 F3750 X44.337 Y38.253
G1 F1560 X43.67 Y38.919 E73.09864
G0 F3750 X43.67 Y39.485
G1 F1560 X44.902 Y38.253 E73.13993
G0 F3750 X45.467 Y38.253
G1 F1560 X43.67 Y40.051 E73.20017
G0 F3750 X43.67 Y40.616
G1 F1560 X46.033 Y38.253 E73.27936
G0 F3750 X46.599 Y38.253
G1 F1560 X43.67 Y41.182 E73.37752
G0 F3750 X43.67 Y41.748
G1 F1560 X47.164 Y38.254 E73.49462
G0 F3750 X47.729 Y38.254
G1 F1560 X43.67 Y42.313 E73.63065
G0 F3750 X43.67 Y42.879
G1 F1560 X48.295 Y38.254 E73.78566
G0 F3750 X48.86 Y38.255
G1 F1560 X43.67 Y43.445 E73.95959
G0 F3750 X43.67 Y44.011
G1 F1560 X49.426 Y38.255 E74.1525
G0 F3750 X49.991 Y38.255
G1 F1560 X43.67 Y44.576 E74.36434
G0 F3750 X43.67 Y45.142
G1 F1560 X50.556 Y38.255 E74.59513
G0 F3750 X51.122 Y38.255
G1 F1560 X43.67 Y45.708 E74.84489
G0 F3750 X44.114 Y45.829
G1 F1560 X51.687 Y38.256 E75.09869
G0 F3750 X52.253 Y38.256
G1 F1560 X44.679 Y45.829 E75.35251
G0 F3750 X45.245 Y45.829
G1 F1560 X52.818 Y38.256 E75.60631
G0 F3750 X53.383 Y38.257
G1 F1560 X45.811 Y45.829 E75.86008
G0 F3750 X46.377 Y45.829
G1 F1560 X53.949 Y38.257 E76.11384
G0 F3750 X54.514 Y38.258
G1 F1560 X46.942 Y45.829 E76.36759
G0 F3750 X47.508 Y45.829
G1 F1560 X55.08 Y38.258 E76.62134
G0 F3750 X55.645 Y38.258
G1 F1560 X48.074 Y45.829 E76.87508
G0 F3750 X48.639 Y45.829
G1 F1560 X56.005 Y38.463 E77.12194
G0 F3750 X56.005 Y39.029
G1 F1560 X49.205 Y45.829 E77.34983
G0 F3750 X49.771 Y45.829
G1 F1560 X56.005 Y39.595 E77.55876
G0 F3750 X56.005 Y40.16
G1 F1560 X50.336 Y45.829 E77.74875
G0 F3750 X50.902 Y45.829
G1 F1560 X56.005 Y40.726 E77.91977
G0 F3750 X56.005 Y41.292
G1 F1560 X51.468 Y45.829 E78.07182
G0 F3750 X52.033 Y45.829
G1 F1560 X56.005 Y41.857 E78.20494
G0 F3750 X56.005 Y42.423
G1 F1560 X52.599 Y45.829 E78.31909
G0 F3750 X53.165 Y45.829
G1 F1560 X56.005 Y42.989 E78.41426
G0 F3750 X56.005 Y43.554
G1 F1560 X53.73 Y45.829 E78.49051
G0 F3750 X54.296 Y45.829
G1 F1560 X56.005 Y44.12 E78.54778
G0 F3750 X56.005 Y44.686
G1 F1560 X54.862 Y45.829 E78.58609
G0 F3750 X55.169 Y46.087
G1 F1560 X56.005 Y45.252 E78.61409
