;FilamentType:PLA
;MachineType:ENTINA TINA2
;Extruder0Temperature:200
;BedTemperature:40
;InfillDensity:90
;FLAVOR:Marlin
;TIME:6626
;FilamentUsed: 4436.21
;Layer height: 0.15
;MINX:12.8
;MINY:1.8
;MINZ:0.3
;MAXX:87.2
;MAXY:118.2
;MAXZ:10.05
;Generated with Cura_SteamEngine 4.10.0
M82 ;absolute extrusion mode
;(**** start.gcode for TINA2****)
M104 S150
G28 Z
G28 X Y; Home extruder
G1 X55 Y55 F1000
G1 Z10 F200
G29
G1 Z15 F100
M107 ; Turn off fan
G90 ; Absolute positioning
M82 ; Extruder in absolute mode
M109 S215
G92 E0 ; Reset extruder position
G1 X90 Y6 Z0.27 F2000
G1 X20 Y6 Z0.27 E15 F1000 
G92 E0 ; Reset extruder position

M203 Z5
G92 E0
G92 E0
G1 F2100 E-3
;LAYER_COUNT:66
;LAYER:0
M107
G0 F3600 X12.982 Y3.973 Z0.3
;TYPE:SKIRT
G1 F2100 E0
G1 F1800 X13.183 Y3.509 E0.02397
G1 X13.454 Y3.082 E0.04794
G1 X13.789 Y2.704 E0.07187
G1 X14.18 Y2.383 E0.09585
G1 X14.617 Y2.128 E0.11983
G1 X15.088 Y1.944 E0.1438
G1 X15.582 Y1.838 E0.16774
G1 X16.24 Y1.801 E0.19898
G1 X83.339 Y1.8 E3.37918
G1 X84.037 Y1.81 E3.41227
G1 X84.54 Y1.857 E3.43621
G1 X85.03 Y1.983 E3.46019
G1 X85.494 Y2.185 E3.48418
G1 X85.92 Y2.457 E3.50813
G1 X86.298 Y2.792 E3.53207
G1 X86.618 Y3.183 E3.55602
G1 X86.873 Y3.62 E3.58
G1 X87.056 Y4.091 E3.60395
G1 X87.163 Y4.585 E3.6279
G1 X87.199 Y5.24 E3.659
G1 X87.2 Y64.106 E6.44899
G1 X87.178 Y65.665 E6.52289
G1 X87.179 Y68.436 E6.65422
G1 X87.2 Y69.883 E6.72281
G1 X87.2 Y72.106 E6.82817
G1 X87.178 Y73.665 E6.90207
G1 X87.179 Y76.436 E7.0334
G1 X87.2 Y77.883 E7.10199
G1 X87.2 Y80.106 E7.20735
G1 X87.178 Y81.665 E7.28125
G1 X87.179 Y84.436 E7.41258
G1 X87.2 Y85.883 E7.48117
G1 X87.2 Y88.106 E7.58653
G1 X87.178 Y89.665 E7.66043
G1 X87.179 Y92.436 E7.79176
G1 X87.2 Y93.883 E7.86035
G1 X87.2 Y114.304 E8.82822
G1 X87.191 Y115.031 E8.86268
G1 X87.145 Y115.534 E8.88662
G1 X87.02 Y116.024 E8.91058
G1 X86.819 Y116.488 E8.93455
G1 X86.548 Y116.915 E8.95852
G1 X86.213 Y117.294 E8.98249
G1 X85.823 Y117.615 E9.00643
G1 X85.387 Y117.871 E9.0304
G1 X84.916 Y118.054 E9.05435
G1 X84.422 Y118.162 E9.07831
G1 X83.76 Y118.199 E9.10974
G1 X16.666 Y118.2 E12.28971
G1 X15.968 Y118.191 E12.32279
G1 X15.464 Y118.144 E12.34678
G1 X14.974 Y118.019 E12.37075
G1 X14.51 Y117.818 E12.39472
G1 X14.084 Y117.547 E12.41865
G1 X13.705 Y117.212 E12.44262
G1 X13.384 Y116.821 E12.4666
G1 X13.129 Y116.385 E12.49054
G1 X12.945 Y115.914 E12.5145
G1 X12.838 Y115.42 E12.53846
G1 X12.801 Y114.744 E12.57055
G1 X12.8 Y94.174 E13.54548
G1 X12.826 Y92.313 E13.63369
G1 X12.826 Y89.568 E13.76379
G1 X12.809 Y88.874 E13.79669
G1 X12.8 Y87.961 E13.83997
G1 X12.8 Y86.174 E13.92466
G1 X12.826 Y84.313 E14.01287
G1 X12.826 Y81.568 E14.14297
G1 X12.809 Y80.874 E14.17588
G1 X12.8 Y79.961 E14.21915
G1 X12.8 Y78.174 E14.30385
G1 X12.826 Y76.313 E14.39206
G1 X12.826 Y73.568 E14.52216
G1 X12.809 Y72.874 E14.55506
G1 X12.8 Y71.961 E14.59834
G1 X12.8 Y70.174 E14.68303
G1 X12.826 Y68.313 E14.77125
G1 X12.826 Y65.568 E14.90135
G1 X12.809 Y64.874 E14.93425
G1 X12.8 Y63.961 E14.97752
G1 X12.8 Y5.631 E17.74211
G1 X12.809 Y4.966 E17.77364
G1 X12.856 Y4.462 E17.79763
G1 X12.982 Y3.973 E17.82156
G1 F2100 E14.82156
;MESH:RTO_Cart-bot12.stl
G0 F3600 X15.335 Y5.614
G0 X16.614 Y5.614
G0 X24.636 Y66.964
G0 X24.868 Y67.549
G0 X25.838 Y68.636
G0 X25.889 Y68.551
;TYPE:WALL-INNER
G1 F2100 E17.82156
G1 F1320 X26.453 Y68.795 E17.85069
G1 X26.637 Y68.85 E17.85979
G1 X27.254 Y68.942 E17.88935
G1 X27.867 Y68.871 E17.9186
G1 X28.052 Y68.826 E17.92763
G1 X28.63 Y68.598 E17.95707
G1 X29.122 Y68.233 E17.98611
G1 X29.263 Y68.102 E17.99523
G1 X29.651 Y67.611 E18.02489
G1 X29.895 Y67.047 E18.05402
G1 X29.95 Y66.863 E18.06312
G1 X30.042 Y66.246 E18.09269
G1 X29.971 Y65.633 E18.12193
G1 X29.926 Y65.448 E18.13096
G1 X29.698 Y64.87 E18.16041
G1 X29.333 Y64.378 E18.18944
G1 X29.202 Y64.237 E18.19856
G1 X28.711 Y63.849 E18.22822
G1 X28.147 Y63.605 E18.25735
G1 X27.963 Y63.55 E18.26645
G1 X27.346 Y63.458 E18.29602
G1 X26.733 Y63.529 E18.32527
G1 X26.548 Y63.574 E18.33429
G1 X25.97 Y63.802 E18.36374
G1 X25.478 Y64.167 E18.39277
G1 X25.337 Y64.298 E18.4019
G1 X24.949 Y64.789 E18.43156
G1 X24.705 Y65.353 E18.46068
G1 X24.65 Y65.537 E18.46978
G1 X24.558 Y66.154 E18.49935
G1 X24.629 Y66.767 E18.5286
G1 X24.674 Y66.952 E18.53762
G1 X24.902 Y67.53 E18.56707
G1 X25.267 Y68.022 E18.5961
G1 X25.398 Y68.163 E18.60523
G1 X25.889 Y68.551 E18.63489
G0 F3600 X25.838 Y68.636
G0 X26.629 Y68.889
G0 X71.581 Y68.462
G0 X71.63 Y68.376
G1 F1320 X72.181 Y68.602 E18.66311
G1 X72.403 Y68.664 E18.67404
G1 X73 Y68.742 E18.70257
G1 X73.593 Y68.664 E18.73092
G1 X73.816 Y68.605 E18.74185
G1 X74.371 Y68.375 E18.77033
G1 X74.845 Y68.01 E18.79868
G1 X75.008 Y67.849 E18.80954
G1 X75.376 Y67.37 E18.83817
G1 X75.602 Y66.819 E18.8664
G1 X75.664 Y66.597 E18.87732
G1 X75.742 Y66 E18.90586
G1 X75.664 Y65.407 E18.9342
G1 X75.605 Y65.184 E18.94514
G1 X75.375 Y64.629 E18.97361
G1 X75.01 Y64.155 E19.00197
G1 X74.849 Y63.992 E19.01282
G1 X74.37 Y63.624 E19.04145
G1 X73.819 Y63.398 E19.06968
G1 X73.597 Y63.336 E19.0806
G1 X73 Y63.258 E19.10914
G1 X72.407 Y63.336 E19.13749
G1 X72.184 Y63.395 E19.14842
G1 X71.629 Y63.625 E19.17689
G1 X71.155 Y63.99 E19.20525
G1 X70.992 Y64.151 E19.21611
G1 X70.624 Y64.63 E19.24474
G1 X70.398 Y65.181 E19.27296
G1 X70.336 Y65.403 E19.28389
G1 X70.258 Y66 E19.31242
G1 X70.336 Y66.593 E19.34077
G1 X70.395 Y66.816 E19.3517
G1 X70.625 Y67.371 E19.38018
G1 X70.99 Y67.845 E19.40853
G1 X71.151 Y68.008 E19.41939
G1 X71.63 Y68.376 E19.44802
G0 F3600 X71.581 Y68.462
G0 X83.01 Y93.184
G0 X83.09 Y93.125
G1 F1320 X83.4 Y93.467 E19.4699
G1 X83.4 Y114.4 E20.46203
G1 X16.6 Y114.4 E23.62806
G1 X16.6 Y93.837 E24.60266
G1 X16.793 Y93.691 E24.61413
G1 X17.196 Y93.27 E24.64175
G1 X17.523 Y92.795 E24.66908
G1 X17.789 Y92.221 E24.69907
G1 X17.95 Y91.616 E24.72874
G1 X18.003 Y90.999 E24.75809
G1 X17.946 Y90.367 E24.78817
G1 X17.783 Y89.761 E24.81791
G1 X17.522 Y89.203 E24.84711
G1 X17.185 Y88.718 E24.8751
G1 X16.787 Y88.304 E24.90232
G1 X16.6 Y88.163 E24.91342
G1 X16.6 Y85.837 E25.02366
G1 X16.793 Y85.691 E25.03513
G1 X17.196 Y85.27 E25.06275
G1 X17.523 Y84.795 E25.09008
G1 X17.789 Y84.221 E25.12007
G1 X17.95 Y83.616 E25.14974
G1 X18.003 Y82.999 E25.17909
G1 X17.946 Y82.367 E25.20917
G1 X17.783 Y81.761 E25.23891
G1 X17.522 Y81.203 E25.26811
G1 X17.185 Y80.718 E25.2961
G1 X16.787 Y80.304 E25.32332
G1 X16.6 Y80.163 E25.33442
G1 X16.6 Y77.837 E25.44466
G1 X16.793 Y77.691 E25.45613
G1 X17.196 Y77.27 E25.48375
G1 X17.523 Y76.795 E25.51108
G1 X17.789 Y76.221 E25.54107
G1 X17.95 Y75.616 E25.57074
G1 X18.003 Y74.999 E25.60009
G1 X17.946 Y74.367 E25.63017
G1 X17.783 Y73.761 E25.65991
G1 X17.522 Y73.203 E25.6891
G1 X17.185 Y72.718 E25.7171
G1 X16.787 Y72.304 E25.74431
G1 X16.6 Y72.163 E25.75541
G1 X16.6 Y69.837 E25.86566
G1 X16.793 Y69.691 E25.87713
G1 X17.196 Y69.27 E25.90475
G1 X17.523 Y68.795 E25.93208
G1 X17.788 Y68.221 E25.96205
G1 X17.948 Y67.625 E25.99129
G1 X18.002 Y67 E26.02103
G1 X17.948 Y66.375 E26.05076
G1 X17.783 Y65.761 E26.08089
G1 X17.522 Y65.203 E26.11009
G1 X17.185 Y64.718 E26.13808
G1 X16.787 Y64.304 E26.1653
G1 X16.6 Y64.163 E26.1764
G1 X16.6 Y5.6 E28.95203
G1 X83.4 Y5.6 E32.11807
G1 X83.4 Y64.533 E34.91124
G1 X83.089 Y64.876 E34.93318
G1 X82.707 Y65.538 E34.9694
G1 X82.476 Y66.248 E35.00479
G1 X82.397 Y67 E35.04063
G1 X82.476 Y67.752 E35.07647
G1 X82.715 Y68.48 E35.11278
G1 X83.09 Y69.125 E35.14814
G1 X83.4 Y69.467 E35.17002
G1 X83.4 Y72.533 E35.31534
G1 X83.09 Y72.875 E35.33721
G1 X82.71 Y73.529 E35.37306
G1 X82.476 Y74.248 E35.4089
G1 X82.397 Y75 E35.44474
G1 X82.476 Y75.752 E35.48058
G1 X82.715 Y76.48 E35.51689
G1 X83.09 Y77.125 E35.55225
G1 X83.4 Y77.467 E35.57413
G1 X83.4 Y80.533 E35.71945
G1 X83.089 Y80.876 E35.74139
G1 X82.707 Y81.538 E35.77761
G1 X82.476 Y82.248 E35.813
G1 X82.397 Y83 E35.84884
G1 X82.476 Y83.752 E35.88468
G1 X82.715 Y84.48 E35.92099
G1 X83.09 Y85.125 E35.95635
G1 X83.4 Y85.467 E35.97823
G1 X83.4 Y88.533 E36.12355
G1 X83.089 Y88.876 E36.14549
G1 X82.707 Y89.538 E36.18172
G1 X82.476 Y90.248 E36.2171
G1 X82.397 Y91 E36.25294
G1 X82.476 Y91.752 E36.28878
G1 X82.71 Y92.471 E36.32462
G1 X83.09 Y93.125 E36.36047
G0 F3600 X83.415 Y92.888
;TYPE:WALL-OUTER
G1 F1320 X83.8 Y93.313 E36.38764
G1 X83.8 Y114.8 E37.40604
G1 X16.2 Y114.8 E40.60998
G1 X16.2 Y93.638 E41.61297
G1 X16.526 Y93.391 E41.63236
G1 X16.885 Y93.017 E41.65693
G1 X17.174 Y92.596 E41.68113
G1 X17.411 Y92.084 E41.70787
G1 X17.554 Y91.547 E41.73421
G1 X17.601 Y91 E41.76023
G1 X17.551 Y90.437 E41.78702
G1 X17.406 Y89.899 E41.81343
G1 X17.174 Y89.403 E41.83938
G1 X16.875 Y88.972 E41.86424
G1 X16.521 Y88.604 E41.88844
G1 X16.2 Y88.362 E41.9075
G1 X16.2 Y85.638 E42.0366
G1 X16.526 Y85.391 E42.05599
G1 X16.885 Y85.017 E42.08056
G1 X17.174 Y84.596 E42.10476
G1 X17.411 Y84.084 E42.1315
G1 X17.554 Y83.547 E42.15784
G1 X17.601 Y83 E42.18386
G1 X17.551 Y82.437 E42.21065
G1 X17.406 Y81.899 E42.23706
G1 X17.174 Y81.403 E42.26301
G1 X16.875 Y80.972 E42.28787
G1 X16.521 Y80.604 E42.31207
G1 X16.2 Y80.362 E42.33113
G1 X16.2 Y77.638 E42.46023
G1 X16.526 Y77.391 E42.47962
G1 X16.885 Y77.017 E42.50419
G1 X17.174 Y76.596 E42.52839
G1 X17.411 Y76.084 E42.55513
G1 X17.554 Y75.547 E42.58147
G1 X17.601 Y75 E42.60749
G1 X17.551 Y74.437 E42.63428
G1 X17.406 Y73.899 E42.66069
G1 X17.174 Y73.403 E42.68664
G1 X16.875 Y72.972 E42.7115
G1 X16.521 Y72.604 E42.73571
G1 X16.2 Y72.362 E42.75476
G1 X16.2 Y69.638 E42.88386
G1 X16.526 Y69.391 E42.90325
G1 X16.885 Y69.017 E42.92782
G1 X17.174 Y68.596 E42.95202
G1 X17.411 Y68.084 E42.97876
G1 X17.553 Y67.555 E43.00472
G1 X17.601 Y67 E43.03113
G1 X17.553 Y66.445 E43.05753
G1 X17.406 Y65.899 E43.08433
G1 X17.174 Y65.403 E43.11028
G1 X16.875 Y64.972 E43.13514
G1 X16.521 Y64.604 E43.15934
G1 X16.2 Y64.362 E43.1784
G1 X16.2 Y5.2 E45.98242
G1 X83.8 Y5.2 E49.18637
G1 X83.8 Y64.687 E52.0058
G1 X83.414 Y65.113 E52.03304
G1 X83.074 Y65.702 E52.06528
G1 X82.869 Y66.332 E52.09668
G1 X82.799 Y67 E52.12851
G1 X82.869 Y67.668 E52.16034
G1 X83.082 Y68.315 E52.19263
G1 X83.415 Y68.888 E52.22404
G1 X83.8 Y69.313 E52.25122
G1 X83.8 Y72.687 E52.41113
G1 X83.415 Y73.112 E52.43831
G1 X83.077 Y73.693 E52.47017
G1 X82.869 Y74.332 E52.50202
G1 X82.799 Y75 E52.53385
G1 X82.869 Y75.668 E52.56569
G1 X83.082 Y76.315 E52.59797
G1 X83.415 Y76.888 E52.62938
G1 X83.8 Y77.313 E52.65656
G1 X83.8 Y80.687 E52.81647
G1 X83.414 Y81.113 E52.84372
G1 X83.074 Y81.702 E52.87595
G1 X82.869 Y82.332 E52.90735
G1 X82.799 Y83 E52.93919
G1 X82.869 Y83.668 E52.97102
G1 X83.082 Y84.315 E53.0033
G1 X83.415 Y84.888 E53.03472
G1 X83.8 Y85.313 E53.06189
G1 X83.8 Y88.687 E53.22181
G1 X83.414 Y89.113 E53.24905
G1 X83.074 Y89.702 E53.28129
G1 X82.869 Y90.332 E53.31269
G1 X82.799 Y91 E53.34452
G1 X82.869 Y91.668 E53.37635
G1 X83.077 Y92.307 E53.4082
G1 X83.415 Y92.888 E53.44006
G0 F3600 X83.549 Y93.036
G0 X83.178 Y93.371
G0 X82.894 Y92.871
G0 X71.642 Y68.488
G0 X71.831 Y68.026
G1 F1320 X72.311 Y68.223 E53.46465
G1 X72.483 Y68.271 E53.47312
G1 X73 Y68.339 E53.49783
G1 X73.515 Y68.271 E53.52245
G1 X73.687 Y68.225 E53.53089
G1 X74.169 Y68.026 E53.55561
G1 X74.582 Y67.708 E53.58031
G1 X74.708 Y67.584 E53.58869
G1 X75.026 Y67.169 E53.61347
G1 X75.223 Y66.689 E53.63806
G1 X75.271 Y66.517 E53.64652
G1 X75.339 Y66 E53.67124
G1 X75.271 Y65.485 E53.69586
G1 X75.225 Y65.313 E53.7043
G1 X75.026 Y64.831 E53.72901
G1 X74.708 Y64.418 E53.75372
G1 X74.584 Y64.292 E53.7621
G1 X74.169 Y63.974 E53.78688
G1 X73.689 Y63.777 E53.81147
G1 X73.517 Y63.729 E53.81993
G1 X73 Y63.661 E53.84465
G1 X72.485 Y63.729 E53.86927
G1 X72.313 Y63.775 E53.87771
G1 X71.831 Y63.974 E53.90242
G1 X71.418 Y64.292 E53.92713
G1 X71.292 Y64.416 E53.9355
G1 X70.974 Y64.831 E53.96028
G1 X70.777 Y65.311 E53.98488
G1 X70.729 Y65.483 E53.99334
G1 X70.661 Y66 E54.01805
G1 X70.729 Y66.515 E54.04267
G1 X70.775 Y66.687 E54.05111
G1 X70.974 Y67.169 E54.07583
G1 X71.292 Y67.582 E54.10053
G1 X71.416 Y67.708 E54.10891
G1 X71.831 Y68.026 E54.13369
G0 F3600 X72.016 Y68.102
G0 X71.827 Y68.564
G0 X27.254 Y68.981
G0 X25.898 Y68.662
G0 X26.096 Y68.205
G1 F1320 X26.59 Y68.419 E54.15921
G1 X26.724 Y68.459 E54.16583
G1 X27.261 Y68.539 E54.19157
G1 X27.796 Y68.477 E54.21709
G1 X27.93 Y68.444 E54.22363
G1 X28.434 Y68.245 E54.24932
G1 X28.866 Y67.925 E54.2748
G1 X28.968 Y67.83 E54.2814
G1 X29.305 Y67.404 E54.30715
G1 X29.519 Y66.91 E54.33266
G1 X29.559 Y66.776 E54.33929
G1 X29.639 Y66.239 E54.36502
G1 X29.577 Y65.704 E54.39055
G1 X29.544 Y65.57 E54.39709
G1 X29.345 Y65.066 E54.42277
G1 X29.025 Y64.634 E54.44825
G1 X28.93 Y64.532 E54.45486
G1 X28.504 Y64.195 E54.4806
G1 X28.01 Y63.981 E54.50612
G1 X27.876 Y63.941 E54.51275
G1 X27.339 Y63.861 E54.53848
G1 X26.804 Y63.923 E54.56401
G1 X26.67 Y63.956 E54.57055
G1 X26.166 Y64.155 E54.59623
G1 X25.734 Y64.475 E54.62171
G1 X25.632 Y64.57 E54.62832
G1 X25.295 Y64.996 E54.65406
G1 X25.081 Y65.49 E54.67958
G1 X25.041 Y65.624 E54.6862
G1 X24.961 Y66.161 E54.71194
G1 X25.023 Y66.696 E54.73746
G1 X25.056 Y66.83 E54.744
G1 X25.255 Y67.334 E54.76969
G1 X25.575 Y67.766 E54.79517
G1 X25.67 Y67.868 E54.80177
G1 X26.096 Y68.205 E54.82752
G0 F3600 X26.279 Y68.284
G0 X25.688 Y68.888
;TYPE:SKIN
G1 F1320 X26.319 Y69.162 E54.86012
G1 X26.551 Y69.232 E54.87161
G1 X27.248 Y69.336 E54.90501
G1 X27.935 Y69.255 E54.93779
G1 X28.171 Y69.199 E54.94929
G1 X28.821 Y68.942 E54.98242
G1 X29.372 Y68.533 E55.01494
G1 X29.55 Y68.367 E55.02648
G1 X29.988 Y67.812 E55.05999
G1 X30.262 Y67.181 E55.09259
G1 X30.332 Y66.949 E55.10408
G1 X30.436 Y66.252 E55.13748
G1 X30.355 Y65.565 E55.17026
G1 X30.289 Y65.305 E55.18298
G1 X30.042 Y64.679 E55.21487
G1 X29.633 Y64.128 E55.2474
G1 X29.467 Y63.95 E55.25893
G1 X28.912 Y63.512 E55.29244
G1 X28.281 Y63.238 E55.32505
G1 X28.049 Y63.168 E55.33653
G1 X27.352 Y63.064 E55.36993
G1 X26.665 Y63.145 E55.40272
G1 X26.429 Y63.201 E55.41421
G1 X25.779 Y63.458 E55.44734
G1 X25.228 Y63.867 E55.47987
G1 X25.05 Y64.033 E55.4914
G1 X24.612 Y64.588 E55.52491
G1 X24.338 Y65.219 E55.55752
G1 X24.268 Y65.451 E55.569
G1 X24.164 Y66.148 E55.6024
G1 X24.245 Y66.835 E55.63519
G1 X24.301 Y67.071 E55.64668
G1 X24.558 Y67.721 E55.67981
G1 X24.967 Y68.272 E55.71233
G1 X25.133 Y68.45 E55.72387
G1 X25.688 Y68.888 E55.75738
G0 F3600 X18.334 Y67.693
G1 F1320 X18.394 Y67 E55.79035
G1 X18.334 Y66.307 E55.82332
G1 X18.151 Y65.627 E55.85669
G1 X17.861 Y65.008 E55.88909
G1 X17.487 Y64.47 E55.92014
G1 X17.047 Y64.012 E55.95025
G1 X16.99 Y63.969 E55.95363
G1 X16.99 Y5.99 E58.70159
G1 X83.01 Y5.99 E61.83065
G1 X83.01 Y64.382 E64.59818
G1 X82.772 Y64.645 E64.61499
G1 X82.348 Y65.378 E64.65512
G1 X82.092 Y66.166 E64.69439
G1 X82.005 Y67 E64.73414
G1 X82.092 Y67.834 E64.77388
G1 X82.358 Y68.64 E64.81411
G1 X82.774 Y69.357 E64.85339
G1 X83.01 Y69.618 E64.87007
G1 X83.01 Y72.382 E65.00107
G1 X82.774 Y72.643 E65.01775
G1 X82.352 Y73.369 E65.05755
G1 X82.092 Y74.166 E65.09728
G1 X82.005 Y75 E65.13703
G1 X82.092 Y75.834 E65.17677
G1 X82.358 Y76.64 E65.217
G1 X82.774 Y77.357 E65.25628
G1 X83.01 Y77.618 E65.27296
G1 X83.01 Y80.382 E65.40396
G1 X82.772 Y80.645 E65.42078
G1 X82.348 Y81.378 E65.46091
G1 X82.092 Y82.166 E65.50018
G1 X82.005 Y83 E65.53992
G1 X82.092 Y83.834 E65.57966
G1 X82.358 Y84.64 E65.61989
G1 X82.774 Y85.357 E65.65918
G1 X83.01 Y85.618 E65.67586
G1 X83.01 Y88.382 E65.80686
G1 X82.772 Y88.645 E65.82367
G1 X82.348 Y89.378 E65.8638
G1 X82.092 Y90.166 E65.90307
G1 X82.005 Y91 E65.94282
G1 X82.092 Y91.834 E65.98256
G1 X82.352 Y92.631 E66.02229
G1 X82.774 Y93.357 E66.06209
G1 X83.01 Y93.618 E66.07877
G1 X83.01 Y114.01 E67.04526
G1 X16.99 Y114.01 E70.17433
G1 X16.99 Y94.031 E71.12125
