;FilamentType:PLA
;MachineType:ENTINA TINA2
;Extruder0Temperature:200
;BedTemperature:40
;InfillDensity:90
;FLAVOR:Marlin
;TIME:2107
;FilamentUsed: 1231.76
;Layer height: 0.15
;MINX:38.45
;MINY:21.95
;MINZ:0.3
;MAXX:61.55
;MAXY:98.05
;MAXZ:13.95
;Generated with Cura_SteamEngine 4.10.0
M82 ;absolute extrusion mode
;(**** start.gcode for TINA2****)
M104 S150
G28 Z
G28 X Y; Home extruder
G1 X55 Y55 F1000
G1 Z10 F200
G29
G1 Z15 F100
M107 ; Turn off fan
G90 ; Absolute positioning
M82 ; Extruder in absolute mode
M109 S215
G92 E0 ; Reset extruder position
G1 X90 Y6 Z0.27 F2000
G1 X20 Y6 Z0.27 E15 F1000 
G92 E0 ; Reset extruder position

M203 Z5
G92 E0
G92 E0
G1 F2100 E-3
;LAYER_COUNT:92
;LAYER:0
M107
G0 F3600 X39.108 Y23.497 Z0.3
;TYPE:SKIRT
G1 F2100 E0
G1 F1800 X39.447 Y23.081 E0.02543
G1 X39.844 Y22.721 E0.05083
G1 X40.291 Y22.423 E0.0763
G1 X40.776 Y22.195 E0.1017
G1 X41.29 Y22.042 E0.12711
G1 X41.958 Y21.96 E0.15901
G1 X42.38 Y21.95 E0.17902
G1 X57.295 Y21.95 E0.88593
G1 X57.993 Y21.96 E0.91901
G1 X58.527 Y22.008 E0.94442
G1 X59.048 Y22.134 E0.96983
G1 X59.545 Y22.337 E0.99527
G1 X60.006 Y22.611 E1.02069
G1 X60.421 Y22.95 E1.04609
G1 X60.781 Y23.348 E1.07152
G1 X61.078 Y23.794 E1.09692
G1 X61.306 Y24.28 E1.12236
G1 X61.458 Y24.794 E1.14777
G1 X61.54 Y25.459 E1.17952
G1 X61.55 Y25.88 E1.19948
G1 X61.55 Y93.759 E4.41666
G1 X61.541 Y94.486 E4.45111
G1 X61.494 Y95.02 E4.47652
G1 X61.369 Y95.541 E4.50192
G1 X61.167 Y96.038 E4.52734
G1 X60.894 Y96.5 E4.55278
G1 X60.556 Y96.916 E4.57818
G1 X60.159 Y97.277 E4.60361
G1 X59.713 Y97.575 E4.62904
G1 X59.228 Y97.803 E4.65444
G1 X58.714 Y97.957 E4.67987
G1 X58.042 Y98.04 E4.71196
G1 X57.62 Y98.05 E4.73197
G1 X42.711 Y98.05 E5.43859
G1 X42.013 Y98.041 E5.47167
G1 X41.478 Y97.994 E5.49713
G1 X40.957 Y97.868 E5.52253
G1 X40.46 Y97.666 E5.54796
G1 X39.999 Y97.393 E5.57335
G1 X39.583 Y97.054 E5.59879
G1 X39.222 Y96.658 E5.62418
G1 X38.924 Y96.212 E5.64961
G1 X38.696 Y95.726 E5.67505
G1 X38.543 Y95.212 E5.70047
G1 X38.46 Y94.538 E5.73265
G1 X38.45 Y94.108 E5.75304
G1 X38.45 Y26.175 E8.97277
G1 X38.459 Y25.51 E9.00429
G1 X38.507 Y24.976 E9.0297
G1 X38.633 Y24.455 E9.05511
G1 X38.835 Y23.958 E9.08054
G1 X39.108 Y23.497 E9.10593
G0 F3600 X39.504 Y23.632
G1 F1800 X39.839 Y23.254 E9.12987
G1 X40.23 Y22.933 E9.15384
G1 X40.667 Y22.678 E9.17782
G1 X41.138 Y22.494 E9.20179
G1 X41.632 Y22.388 E9.22574
G1 X42.29 Y22.351 E9.25697
G1 X57.289 Y22.35 E9.96786
G1 X57.987 Y22.36 E10.00095
G1 X58.49 Y22.407 E10.02489
G1 X58.98 Y22.533 E10.04887
G1 X59.444 Y22.735 E10.07285
G1 X59.87 Y23.007 E10.09681
G1 X60.248 Y23.342 E10.12075
G1 X60.568 Y23.733 E10.1447
G1 X60.823 Y24.17 E10.16868
G1 X61.006 Y24.641 E10.19262
G1 X61.113 Y25.135 E10.21658
G1 X61.149 Y25.79 E10.24767
G1 X61.15 Y93.754 E13.46887
G1 X61.141 Y94.481 E13.50333
G1 X61.095 Y94.984 E13.52727
G1 X60.97 Y95.474 E13.55124
G1 X60.769 Y95.938 E13.57521
G1 X60.498 Y96.365 E13.59918
G1 X60.163 Y96.744 E13.62315
G1 X59.773 Y97.065 E13.64709
G1 X59.337 Y97.321 E13.67105
G1 X58.866 Y97.504 E13.695
G1 X58.372 Y97.612 E13.71897
G1 X57.71 Y97.649 E13.75039
G1 X42.716 Y97.65 E14.46105
G1 X42.018 Y97.641 E14.49413
G1 X41.514 Y97.594 E14.51812
G1 X41.024 Y97.469 E14.54209
G1 X40.56 Y97.268 E14.56606
G1 X40.134 Y96.997 E14.58998
G1 X39.755 Y96.662 E14.61396
G1 X39.434 Y96.271 E14.63794
G1 X39.179 Y95.835 E14.66188
G1 X38.995 Y95.364 E14.68584
G1 X38.888 Y94.87 E14.7098
G1 X38.851 Y94.194 E14.74189
G1 X38.85 Y26.181 E17.96541
G1 X38.859 Y25.516 E17.99693
G1 X38.906 Y25.012 E18.02092
G1 X39.032 Y24.523 E18.04485
G1 X39.233 Y24.059 E18.06882
G1 X39.504 Y23.632 E18.09279
G1 F2100 E15.09279
;MESH:RTO_Cart_CUP.stl
G0 F3600 X41.385 Y25.964
G0 X42.464 Y25.964
G0 X50.35 Y67.15
;TYPE:WALL-INNER
G1 F2100 E18.09279
G1 F1320 X50.55 Y67.15 E18.10227
G1 X57.15 Y67.149 E18.41508
G1 X57.35 Y67.149 E18.42456
G1 X57.35 Y67.349 E18.4307
G1 X57.35 Y93.85 E19.68673
G1 X42.65 Y93.85 E20.38345
G1 X42.65 Y26.15 E23.59214
G1 X57.35 Y26.15 E24.28885
G1 X57.35 Y50.85 E25.45953
G1 X50.35 Y50.85 E25.7913
G1 X50.35 Y66.95 E26.55437
G1 X50.35 Y67.15 E26.5605
G0 F3600 X50.522 Y51.022
G0 X50.75 Y51.25
;TYPE:WALL-OUTER
G1 F1320 X50.75 Y66.55 E27.28566
G1 X50.75 Y66.75 E27.29514
G1 X50.95 Y66.75 E27.30128
G1 X57.249 Y66.749 E27.59982
G1 X57.25 Y51.45 E28.32493
G1 X57.25 Y51.25 E28.33441
G1 X57.05 Y51.25 E28.34054
G1 X50.75 Y51.25 E28.63914
G0 F3600 X50.75 Y51.45
G0 X50.45 Y51.45
G0 X50.522 Y66.978
G0 X57.48 Y93.98
G0 X57.75 Y94.25
G1 F1320 X42.25 Y94.25 E29.37377
G1 X42.25 Y25.75 E32.62038
G1 X57.75 Y25.75 E33.35501
G1 X57.75 Y94.25 E36.60161
G0 F3600 X57.55 Y94.25
G0 X56.96 Y93.46
;TYPE:SKIN
G1 F1320 X43.04 Y93.46 E37.26136
G1 X43.04 Y26.54 E40.43308
G1 X56.96 Y26.54 E41.09283
G1 X56.96 Y50.46 E42.22653
G1 X49.96 Y50.46 E42.5583
G1 X49.96 Y67.54 E43.36782
G1 X56.96 Y67.539 E43.69959
G1 X56.96 Y93.46 E44.92814
G0 F3600 X43.499 Y93.279
G1 F1320 X43.219 Y93 E44.94687
G0 F3600 X43.219 Y92.434
G1 F1320 X44.064 Y93.279 E45.00351
G0 F3600 X44.63 Y93.279
G1 F1320 X43.219 Y91.868 E45.09809
G0 F3600 X43.219 Y91.303
G1 F1320 X45.196 Y93.279 E45.23057
G0 F3600 X45.761 Y93.279
G1 F1320 X43.219 Y90.737 E45.40095
G0 F3600 X43.219 Y90.171
G1 F1320 X46.327 Y93.279 E45.60927
G0 F3600 X46.893 Y93.279
G1 F1320 X43.219 Y89.605 E45.85553
G0 F3600 X43.219 Y89.04
G1 F1320 X47.458 Y93.279 E46.13966
G0 F3600 X48.024 Y93.279
G1 F1320 X43.219 Y88.474 E46.46173
G0 F3600 X43.219 Y87.908
G1 F1320 X48.59 Y93.279 E46.82173
G0 F3600 X49.155 Y93.279
G1 F1320 X43.219 Y87.343 E47.21961
G0 F3600 X43.219 Y86.777
G1 F1320 X49.721 Y93.279 E47.65542
G0 F3600 X50.287 Y93.279
G1 F1320 X43.219 Y86.211 E48.12918
G0 F3600 X43.219 Y85.646
G1 F1320 X50.852 Y93.279 E48.6408
G0 F3600 X51.418 Y93.279
G1 F1320 X43.219 Y85.08 E49.19036
G0 F3600 X43.219 Y84.514
G1 F1320 X51.984 Y93.279 E49.77785
G0 F3600 X52.55 Y93.279
G1 F1320 X43.219 Y83.949 E50.40326
G0 F3600 X43.219 Y83.383
G1 F1320 X53.115 Y93.279 E51.06656
G0 F3600 X53.681 Y93.279
G1 F1320 X43.219 Y82.817 E51.7678
G0 F3600 X43.219 Y82.252
G1 F1320 X54.247 Y93.279 E52.50695
G0 F3600 X54.812 Y93.279
G1 F1320 X43.219 Y81.686 E53.284
G0 F3600 X43.219 Y81.12
G1 F1320 X55.378 Y93.279 E54.09899
G0 F3600 X55.944 Y93.279
G1 F1320 X43.219 Y80.555 E54.95188
G0 F3600 X43.219 Y79.989
G1 F1320 X56.509 Y93.279 E55.84268
G0 F3600 X56.779 Y92.983
G1 F1320 X43.219 Y79.423 E56.75158
G0 F3600 X43.219 Y78.857
G1 F1320 X56.779 Y92.418 E57.6605
G0 F3600 X56.779 Y91.852
G1 F1320 X43.219 Y78.292 E58.5694
G0 F3600 X43.219 Y77.726
G1 F1320 X56.779 Y91.286 E59.47829
G0 F3600 X56.779 Y90.721
G1 F1320 X43.219 Y77.16 E60.38722
G0 F3600 X43.219 Y76.595
G1 F1320 X56.779 Y90.155 E61.29612
G0 F3600 X56.779 Y89.589
G1 F1320 X43.219 Y76.029 E62.20501
G0 F3600 X43.219 Y75.463
G1 F1320 X56.779 Y89.024 E63.11394
G0 F3600 X56.779 Y88.458
G1 F1320 X43.219 Y74.898 E64.02283
G0 F3600 X43.219 Y74.332
G1 F1320 X56.779 Y87.892 E64.93173
G0 F3600 X56.779 Y87.326
G1 F1320 X43.219 Y73.766 E65.84062
G0 F3600 X43.219 Y73.201
G1 F1320 X56.779 Y86.761 E66.74952
G0 F3600 X56.779 Y86.195
G1 F1320 X43.219 Y72.635 E67.65841
G0 F3600 X43.219 Y72.069
G1 F1320 X56.779 Y85.629 E68.56731
G0 F3600 X56.779 Y85.064
G1 F1320 X43.219 Y71.504 E69.4762
G0 F3600 X43.219 Y70.938
G1 F1320 X56.779 Y84.498 E70.3851
G0 F3600 X56.779 Y83.932
G1 F1320 X43.219 Y70.372 E71.29399
G0 F3600 X43.219 Y69.806
G1 F1320 X56.779 Y83.367 E72.20292
G0 F3600 X56.779 Y82.801
G1 F1320 X43.219 Y69.241 E73.11181
G0 F3600 X43.219 Y68.675
G1 F1320 X56.779 Y82.235 E74.02071
G0 F3600 X56.779 Y81.67
G1 F1320 X43.219 Y68.109 E74.92964
G0 F3600 X43.219 Y67.544
G1 F1320 X56.779 Y81.104 E75.83853
G0 F3600 X56.779 Y80.538
G1 F1320 X43.219 Y66.978 E76.74743
G0 F3600 X43.219 Y66.412
G1 F1320 X56.779 Y79.973 E77.65636
G0 F3600 X56.779 Y79.407
G1 F1320 X43.219 Y65.847 E78.56525
G0 F3600 X43.219 Y65.281
G1 F1320 X56.779 Y78.841 E79.47414
G0 F3600 X56.779 Y78.276
G1 F1320 X43.219 Y64.715 E80.38307
G0 F3600 X43.219 Y64.15
G1 F1320 X56.779 Y77.71 E81.29197
G0 F3600 X56.779 Y77.144
G1 F1320 X43.219 Y63.584 E82.20086
G0 F3600 X43.219 Y63.018
G1 F1320 X56.779 Y76.578 E83.10976
G0 F3600 X56.779 Y76.013
G1 F1320 X43.219 Y62.453 E84.01865
G0 F3600 X43.219 Y61.887
G1 F1320 X56.779 Y75.447 E84.92755
G0 F3600 X56.779 Y74.881
G1 F1320 X43.219 Y61.321 E85.83644
G0 F3600 X43.219 Y60.756
G1 F1320 X49.78 Y67.316 E86.27618
G0 F3600 X49.78 Y66.75
G1 F1320 X43.219 Y60.19 E86.71591
G0 F3600 X43.219 Y59.624
G1 F1320 X49.78 Y66.185 E87.15568
G0 F3600 X49.78 Y65.619
G1 F1320 X43.219 Y59.058 E87.59545
G0 F3600 X43.219 Y58.493
G1 F1320 X49.78 Y65.053 E88.03518
G0 F3600 X49.78 Y64.488
G1 F1320 X43.219 Y57.927 E88.47495
G0 F3600 X43.219 Y57.361
G1 F1320 X49.78 Y63.922 E88.91472
G0 F3600 X49.78 Y63.356
G1 F1320 X43.219 Y56.796 E89.35445
G0 F3600 X43.219 Y56.23
G1 F1320 X49.78 Y62.791 E89.79422
G0 F3600 X49.78 Y62.225
G1 F1320 X43.219 Y55.664 E90.23399
G0 F3600 X43.219 Y55.099
G1 F1320 X49.78 Y61.659 E90.67372
G0 F3600 X49.78 Y61.094
G1 F1320 X43.219 Y54.533 E91.11349
G0 F3600 X43.219 Y53.967
G1 F1320 X49.78 Y60.528 E91.55326
G0 F3600 X49.78 Y59.962
G1 F1320 X43.219 Y53.402 E91.993
G0 F3600 X43.219 Y52.836
G1 F1320 X49.78 Y59.396 E92.43273
G0 F3600 X49.78 Y58.831
G1 F1320 X43.219 Y52.27 E92.8725
G0 F3600 X43.219 Y51.705
G1 F1320 X49.78 Y58.265 E93.31223
G0 F3600 X49.78 Y57.699
G1 F1320 X43.219 Y51.139 E93.75197
G0 F3600 X43.219 Y50.573
G1 F1320 X49.78 Y57.134 E94.19174
G0 F3600 X49.78 Y56.568
G1 F1320 X43.219 Y50.008 E94.63147
G0 F3600 X43.219 Y49.442
G1 F1320 X49.78 Y56.002 E95.07121
G0 F3600 X49.78 Y55.437
G1 F1320 X43.219 Y48.876 E95.51097
G0 F3600 X43.219 Y48.31
G1 F1320 X49.78 Y54.871 E95.95074
G0 F3600 X49.78 Y54.305
G1 F1320 X43.219 Y47.745 E96.39048
G0 F3600 X43.219 Y47.179
G1 F1320 X49.78 Y53.74 E96.83025
G0 F3600 X49.78 Y53.174
G1 F1320 X43.219 Y46.613 E97.27001
G0 F3600 X43.219 Y46.048
G1 F1320 X49.78 Y52.608 E97.70975
G0 F3600 X49.78 Y52.043
G1 F1320 X43.219 Y45.482 E98.14952
G0 F3600 X43.219 Y44.916
G1 F1320 X49.78 Y51.477 E98.58929
G0 F3600 X49.78 Y50.911
G1 F1320 X43.219 Y44.351 E99.02902
G0 F3600 X43.219 Y43.785
G1 F1320 X49.78 Y50.346 E99.46879
G0 F3600 X50.279 Y50.279
G1 F1320 X43.219 Y43.219 E99.942
G0 F3600 X43.219 Y42.654
G1 F1320 X50.845 Y50.279 E100.45312
G0 F3600 X51.41 Y50.279
G1 F1320 X43.219 Y42.088 E101.00215
G0 F3600 X43.219 Y41.522
G1 F1320 X51.976 Y50.279 E101.58911
G0 F3600 X52.542 Y50.279
G1 F1320 X43.219 Y40.957 E102.21397
G0 F3600 X43.219 Y40.391
G1 F1320 X53.107 Y50.279 E102.87674
G0 F3600 X53.673 Y50.279
G1 F1320 X43.219 Y39.825 E103.57745
G0 F3600 X43.219 Y39.259
G1 F1320 X54.239 Y50.279 E104.31609
G0 F3600 X54.805 Y50.279
G1 F1320 X43.219 Y38.694 E105.09264
G0 F3600 X43.219 Y38.128
G1 F1320 X55.37 Y50.279 E105.90709
G0 F3600 X55.936 Y50.279
G1 F1320 X43.219 Y37.562 E106.75948
G0 F3600 X43.219 Y36.997
G1 F1320 X56.502 Y50.279 E107.64978
G0 F3600 X56.779 Y49.991
G1 F1320 X43.219 Y36.431 E108.55867
G0 F3600 X43.219 Y35.865
G1 F1320 X56.779 Y49.425 E109.46757
G0 F3600 X56.779 Y48.859
G1 F1320 X43.219 Y35.3 E110.37643
G0 F3600 X43.219 Y34.734
G1 F1320 X56.779 Y48.293 E111.28529
G0 F3600 X56.779 Y47.728
G1 F1320 X43.219 Y34.168 E112.19419
G0 F3600 X43.219 Y33.603
G1 F1320 X56.779 Y47.162 E113.10305
G0 F3600 X56.779 Y46.596
G1 F1320 X43.219 Y33.037 E114.01191
G0 F3600 X43.219 Y32.471
G1 F1320 X56.779 Y46.031 E114.9208
G0 F3600 X56.779 Y45.465
G1 F1320 X43.219 Y31.906 E115.82966
G0 F3600 X43.219 Y31.34
G1 F1320 X56.779 Y44.899 E116.73852
G0 F3600 X56.779 Y44.334
G1 F1320 X43.219 Y30.774 E117.64742
G0 F3600 X43.219 Y30.209
G1 F1320 X56.779 Y43.768 E118.55628
G0 F3600 X56.779 Y43.202
G1 F1320 X43.219 Y29.643 E119.46514
G0 F3600 X43.219 Y29.077
G1 F1320 X56.779 Y42.637 E120.37404
G0 F3600 X56.779 Y42.071
G1 F1320 X43.219 Y28.511 E121.28293
G0 F3600 X43.219 Y27.946
G1 F1320 X56.779 Y41.505 E122.19179
G0 F3600 X56.779 Y40.94
G1 F1320 X43.219 Y27.38 E123.10069
G0 F3600 X43.219 Y26.814
G1 F1320 X56.779 Y40.374 E124.00958
G0 F3600 X56.779 Y39.808
G1 F1320 X43.69 Y26.72 E124.88687
G0 F3600 X44.256 Y26.72
G1 F1320 X56.779 Y39.243 E125.72626
G0 F3600 X56.779 Y38.677
G1 F1320 X44.822 Y26.72 E126.52771
G0 F3600 X45.387 Y26.72
G1 F1320 X56.779 Y38.111 E127.29125
G0 F3600 X56.779 Y37.545
G1 F1320 X45.953 Y26.72 E128.01686
G0 F3600 X46.519 Y26.72
G1 F1320 X56.779 Y36.98 E128.70457
G0 F3600 X56.779 Y36.414
G1 F1320 X47.084 Y26.72 E129.35436
G0 F3600 X47.65 Y26.72
G1 F1320 X56.779 Y35.848 E129.96623
G0 F3600 X56.779 Y35.283
G1 F1320 X48.216 Y26.72 E130.54018
G0 F3600 X48.781 Y26.72
G1 F1320 X56.779 Y34.717 E131.07624
G0 F3600 X56.779 Y34.151
G1 F1320 X49.347 Y26.72 E131.57435
G0 F3600 X49.913 Y26.72
G1 F1320 X56.779 Y33.586 E132.03457
G0 F3600 X56.779 Y33.02
G1 F1320 X50.478 Y26.72 E132.45687
G0 F3600 X51.044 Y26.72
G1 F1320 X56.779 Y32.454 E132.84124
G0 F3600 X56.779 Y31.889
G1 F1320 X51.61 Y26.72 E133.18771
G0 F3600 X52.175 Y26.72
G1 F1320 X56.779 Y31.323 E133.49627
G0 F3600 X56.779 Y30.757
G1 F1320 X52.741 Y26.72 E133.76689
G0 F3600 X53.307 Y26.72
G1 F1320 X56.779 Y30.192 E133.99961
G0 F3600 X56.779 Y29.626
G1 F1320 X53.873 Y26.72 E134.1944
G0 F3600 X54.438 Y26.72
G1 F1320 X56.779 Y29.06 E134.35127
G0 F3600 X56.779 Y28.494
G1 F1320 X55.004 Y26.72 E134.47022
G0 F3600 X55.57 Y26.72
G1 F1320 X56.779 Y27.929 E134.55125
G0 F3600 X56.779 Y27.363
G1 F1320 X56.135 Y26.72 E134.59438
G0 F3600 X56.701 Y26.72
G1 F1320 X56.779 Y26.797 E134.59958
G0 F3600 X57.278 Y51.022
G0 X57.277 Y66.977
G0 X56.405 Y67.719
G1 F1320 X56.779 Y68.093 E134.62465
G0 F3600 X56.779 Y68.659
G1 F1320 X55.84 Y67.719 E134.68762
G0 F3600 X55.274 Y67.719
G1 F1320 X56.779 Y69.225 E134.78853
G0 F3600 X56.779 Y69.79
G1 F1320 X54.708 Y67.719 E134.92734
G0 F3600 X54.143 Y67.719
G1 F1320 X56.779 Y70.356 E135.10406
G0 F3600 X56.779 Y70.922
G1 F1320 X53.577 Y67.719 E135.31872
G0 F3600 X53.011 Y67.719
M104 S200
G1 F1320 X56.779 Y71.487 E135.57128
G0 F3600 X56.779 Y72.053
G1 F1320 X52.446 Y67.719 E135.86174
G0 F3600 X51.88 Y67.719
G1 F1320 X56.779 Y72.619 E136.19014
G0 F3600 X56.779 Y73.184
G1 F1320 X51.314 Y67.719 E136.55645
G0 F3600 X50.749 Y67.719
G1 F1320 X56.779 Y73.75 E136.96066
G0 F3600 X56.779 Y74.316
G1 F1320 X50.183 Y67.719 E137.40281
G1 X50.113 Y67.649
G0 F3600 X57.277 Y66.977
G0 X57.498 Y66.832
;TYPE:SKIN
G1 F1320 X57.498 Y66.549 E137.40656
G1 X57.498 Y51.559 E137.60548
G0 F3600 X57.554 Y51.332
G1 F1320 X57.443 Y51.221 E137.6092
;MESH:NONMESH
G0 F600 X57.443 Y51.221 Z0.45
G0 F3600 X50.575 Y50.95
G0 X50.575 Y51.075
;TIME_ELAPSED:138.615393
;LAYER:1
M106 S255
;TYPE:WALL-INNER
;MESH:RTO_Cart_CUP.stl
G1 F3060 X50.575 Y66.725 E137.98007
G1 X50.575 Y66.925 E137.98481
G1 X50.775 Y66.925 E137.98788
G1 X57.3 Y66.924 E138.14251
G1 X57.424 Y66.924 E138.14545
G1 X57.425 Y51.275 E138.5163
G1 X57.425 Y51.075 E138.52104
G1 X57.225 Y51.075 E138.52411
G1 X50.575 Y51.075 E138.6817
G0 F3750 X50.505 Y51.005
G0 X50.547 Y66.953
G0 X57.505 Y94.005
G0 X57.575 Y94.075
G1 F3060 X42.425 Y94.075 E139.04072
G1 X42.425 Y25.925 E140.65573
G1 X57.575 Y25.925 E141.01475
G1 X57.575 Y51.075 E141.61075
G1 X57.575 Y66.924 E141.98634
G1 X57.575 Y67.048 E141.98863
G1 X57.575 Y94.075 E142.62911
G0 F3750 X57.975 Y94.475
;TYPE:WALL-OUTER
G1 F1860 X42.025 Y94.475 E143.00709
G1 X42.025 Y25.525 E144.64106
G1 X57.975 Y25.525 E145.01904
G1 X57.975 Y94.475 E146.65301
G0 F3750 X57.775 Y94.475
G0 X57.505 Y94.005
G0 X50.547 Y66.953
G0 X50.547 Y51.047
G0 X50.975 Y51.475
G1 F1860 X50.975 Y66.325 E147.00492
G1 X50.975 Y66.525 E147.00966
G1 X51.175 Y66.525 E147.01273
G1 X57.024 Y66.524 E147.15134
G1 X57.025 Y51.675 E147.50323
