;FilamentType:PLA
;MachineType:ENTINA TINA2
;Extruder0Temperature:200
;BedTemperature:40
;InfillDensity:90
;FLAVOR:Marlin
;TIME:4874
;FilamentUsed: 3436.24
;Layer height: 0.15
;MINX:13.05
;MINY:1.8
;MINZ:0.3
;MAXX:86.95
;MAXY:118.2
;MAXZ:4.95
;Generated with Cura_SteamEngine 4.10.0
M82 ;absolute extrusion mode
;(**** start.gcode for TINA2****)
M104 S150
G28 Z
G28 X Y; Home extruder
G1 X55 Y55 F1000
G1 Z10 F200
G29
G1 Z15 F100
M107 ; Turn off fan
G90 ; Absolute positioning
M82 ; Extruder in absolute mode
M109 S215
G92 E0 ; Reset extruder position
G1 X90 Y6 Z0.27 F2000
G1 X20 Y6 Z0.27 E15 F1000 
G92 E0 ; Reset extruder position

M203 Z5
G92 E0
G92 E0
G1 F2100 E-3
;LAYER_COUNT:32
;LAYER:0
M107
G0 F3600 X13.232 Y3.973 Z0.3
;TYPE:SKIRT
G1 F2100 E0
G1 F1800 X13.433 Y3.509 E0.02397
G1 X13.704 Y3.082 E0.04794
G1 X14.039 Y2.704 E0.07187
G1 X14.43 Y2.383 E0.09585
G1 X14.867 Y2.128 E0.11983
G1 X15.338 Y1.944 E0.1438
G1 X15.832 Y1.838 E0.16774
G1 X16.49 Y1.801 E0.19898
G1 X83.089 Y1.8 E3.35549
G1 X83.787 Y1.81 E3.38857
G1 X84.29 Y1.857 E3.41252
G1 X84.78 Y1.983 E3.43649
G1 X85.244 Y2.185 E3.46048
G1 X85.67 Y2.457 E3.48444
G1 X86.048 Y2.792 E3.50837
G1 X86.368 Y3.183 E3.53232
G1 X86.623 Y3.62 E3.5563
G1 X86.806 Y4.091 E3.58025
G1 X86.913 Y4.585 E3.60421
G1 X86.949 Y5.24 E3.6353
G1 X86.95 Y64.229 E6.43112
G1 X86.931 Y65.594 E6.49582
G1 X86.931 Y68.335 E6.62574
G1 X86.946 Y69.003 E6.6574
G1 X86.95 Y69.515 E6.68167
G1 X86.95 Y72.229 E6.8103
G1 X86.931 Y73.594 E6.875
G1 X86.931 Y76.335 E7.00492
G1 X86.946 Y77.003 E7.03658
G1 X86.95 Y77.515 E7.06085
G1 X86.95 Y80.229 E7.18948
G1 X86.931 Y81.594 E7.25418
G1 X86.931 Y84.335 E7.3841
G1 X86.946 Y85.003 E7.41576
G1 X86.95 Y85.515 E7.44003
G1 X86.95 Y88.229 E7.56866
G1 X86.931 Y89.594 E7.63337
G1 X86.931 Y92.335 E7.76328
G1 X86.946 Y93.003 E7.79495
G1 X86.95 Y93.515 E7.81921
G1 X86.95 Y114.304 E8.80452
G1 X86.941 Y115.031 E8.83898
G1 X86.895 Y115.534 E8.86292
G1 X86.77 Y116.024 E8.88689
G1 X86.569 Y116.488 E8.91085
G1 X86.298 Y116.915 E8.93482
G1 X85.963 Y117.294 E8.9588
G1 X85.573 Y117.615 E8.98274
G1 X85.137 Y117.871 E9.0067
G1 X84.666 Y118.054 E9.03065
G1 X84.172 Y118.162 E9.05462
G1 X83.51 Y118.199 E9.08604
G1 X37.908 Y118.2 E11.24738
G1 X37.187 Y118.189 E11.28156
G1 X37.012 Y118.181 E11.28986
G1 X36.102 Y118.117 E11.3331
G1 X33.328 Y117.96 E11.46478
G1 X30.579 Y117.883 E11.59512
G1 X27.86 Y117.883 E11.72399
G1 X25.105 Y117.962 E11.85462
G1 X22.347 Y118.118 E11.98555
G1 X21.665 Y118.171 E12.01797
G1 X21.01 Y118.199 E12.04904
G1 X16.911 Y118.2 E12.24332
G1 X16.213 Y118.19 E12.2764
G1 X15.71 Y118.143 E12.30035
G1 X15.22 Y118.017 E12.32433
G1 X14.756 Y117.815 E12.34831
G1 X14.33 Y117.543 E12.37227
G1 X13.952 Y117.208 E12.39621
G1 X13.632 Y116.817 E12.42015
G1 X13.377 Y116.38 E12.44413
G1 X13.194 Y115.909 E12.46808
G1 X13.087 Y115.415 E12.49204
G1 X13.051 Y114.745 E12.52384
G1 X13.05 Y93.894 E13.51209
G1 X13.072 Y92.335 E13.58598
G1 X13.071 Y89.564 E13.71732
G1 X13.05 Y88.117 E13.78591
G1 X13.05 Y85.894 E13.89127
G1 X13.072 Y84.335 E13.96516
G1 X13.071 Y81.564 E14.0965
G1 X13.05 Y80.117 E14.16509
G1 X13.05 Y77.894 E14.27045
G1 X13.072 Y76.335 E14.34434
G1 X13.071 Y73.564 E14.47568
G1 X13.05 Y72.117 E14.54427
G1 X13.05 Y69.894 E14.64963
G1 X13.072 Y68.335 E14.72352
G1 X13.071 Y65.564 E14.85486
G1 X13.05 Y64.117 E14.92345
G1 X13.05 Y5.631 E17.69543
G1 X13.059 Y4.966 E17.72695
G1 X13.106 Y4.462 E17.75094
G1 X13.232 Y3.973 E17.77488
G1 F2100 E14.77488
;MESH:RTO_Cart_TOP.stl
G0 F3600 X15.585 Y5.614
G0 X16.864 Y5.614
G0 X37.58 Y92.33
G0 X37.65 Y92.4
;TYPE:WALL-INNER
G1 F2100 E17.77488
G1 F1320 X37.65 Y107.6 E18.49529
G1 X78.85 Y107.6 E20.44799
G1 X78.85 Y92.4 E21.16841
G1 X37.65 Y92.4 E23.12111
G0 F3600 X37.58 Y92.33
G0 X20.58 Y111.33
G0 X20.65 Y111.4
G1 F1320 X20.65 Y114.4 E23.2633
G1 X16.85 Y114.4 E23.4434
G1 X16.85 Y93.467 E24.43554
G1 X17.16 Y93.125 E24.45741
G1 X17.54 Y92.471 E24.49326
G1 X17.774 Y91.752 E24.5291
G1 X17.853 Y91 E24.56494
G1 X17.774 Y90.248 E24.60077
G1 X17.54 Y89.529 E24.63661
G1 X17.16 Y88.875 E24.67246
G1 X16.85 Y88.533 E24.69434
G1 X16.85 Y85.467 E24.83965
G1 X17.16 Y85.125 E24.86153
G1 X17.54 Y84.471 E24.89738
G1 X17.774 Y83.752 E24.93322
G1 X17.853 Y83 E24.96905
G1 X17.774 Y82.248 E25.00489
G1 X17.54 Y81.529 E25.04073
G1 X17.16 Y80.875 E25.07658
G1 X16.85 Y80.533 E25.09846
G1 X16.85 Y77.467 E25.24377
G1 X17.16 Y77.125 E25.26565
G1 X17.54 Y76.471 E25.3015
G1 X17.774 Y75.752 E25.33733
G1 X17.853 Y75 E25.37317
G1 X17.774 Y74.248 E25.40901
G1 X17.54 Y73.529 E25.44485
G1 X17.16 Y72.875 E25.4807
G1 X16.85 Y72.533 E25.50257
G1 X16.85 Y69.467 E25.64789
G1 X17.16 Y69.125 E25.66977
G1 X17.54 Y68.471 E25.70561
G1 X17.774 Y67.752 E25.74145
G1 X17.853 Y67 E25.77729
G1 X17.774 Y66.248 E25.81313
G1 X17.54 Y65.529 E25.84896
G1 X17.16 Y64.875 E25.88481
G1 X16.85 Y64.533 E25.90669
G1 X16.85 Y5.6 E28.69986
G1 X83.15 Y5.6 E31.84219
G1 X83.15 Y64.64 E34.64044
G1 X82.87 Y64.976 E34.66117
G1 X82.528 Y65.604 E34.69506
G1 X82.318 Y66.288 E34.72897
G1 X82.247 Y67 E34.76288
G1 X82.318 Y67.712 E34.7968
G1 X82.528 Y68.396 E34.83071
G1 X82.87 Y69.024 E34.8646
G1 X83.15 Y69.36 E34.88533
G1 X83.15 Y72.64 E35.04079
G1 X82.87 Y72.976 E35.06152
G1 X82.528 Y73.604 E35.09541
G1 X82.318 Y74.288 E35.12932
G1 X82.247 Y75 E35.16324
G1 X82.318 Y75.712 E35.19715
G1 X82.528 Y76.396 E35.23106
G1 X82.87 Y77.024 E35.26495
G1 X83.15 Y77.36 E35.28568
G1 X83.15 Y80.64 E35.44114
G1 X82.87 Y80.976 E35.46187
G1 X82.528 Y81.604 E35.49576
G1 X82.318 Y82.288 E35.52967
G1 X82.247 Y83 E35.56359
G1 X82.318 Y83.712 E35.5975
G1 X82.528 Y84.396 E35.63141
G1 X82.87 Y85.024 E35.6653
G1 X83.15 Y85.36 E35.68603
G1 X83.15 Y88.64 E35.84149
G1 X82.87 Y88.976 E35.86222
G1 X82.528 Y89.604 E35.89611
G1 X82.318 Y90.288 E35.93003
G1 X82.247 Y91 E35.96394
G1 X82.318 Y91.712 E35.99785
G1 X82.528 Y92.396 E36.03176
G1 X82.87 Y93.024 E36.06566
G1 X83.15 Y93.36 E36.08639
G1 X83.15 Y114.4 E37.08359
G1 X37.85 Y114.4 E39.23062
G1 X37.85 Y111.4 E39.3728
G1 X20.65 Y111.4 E40.18801
G0 F3600 X21.05 Y111.8
;TYPE:WALL-OUTER
G1 F1320 X21.05 Y114.8 E40.3302
G1 X16.45 Y114.8 E40.54822
G1 X16.45 Y93.313 E41.56661
G1 X16.835 Y92.888 E41.59379
G1 X17.173 Y92.307 E41.62564
G1 X17.381 Y91.668 E41.65749
G1 X17.451 Y91 E41.68933
G1 X17.381 Y90.332 E41.72116
G1 X17.173 Y89.693 E41.75301
G1 X16.835 Y89.112 E41.78487
G1 X16.45 Y88.687 E41.81205
G1 X16.45 Y85.313 E41.97196
G1 X16.835 Y84.888 E41.99914
G1 X17.173 Y84.307 E42.031
G1 X17.381 Y83.668 E42.06285
G1 X17.451 Y83 E42.09468
G1 X17.381 Y82.332 E42.12652
G1 X17.173 Y81.693 E42.15837
G1 X16.835 Y81.112 E42.19022
G1 X16.45 Y80.687 E42.2174
G1 X16.45 Y77.313 E42.37732
G1 X16.835 Y76.888 E42.40449
G1 X17.173 Y76.307 E42.43635
G1 X17.381 Y75.668 E42.4682
G1 X17.451 Y75 E42.50004
G1 X17.381 Y74.332 E42.53187
G1 X17.173 Y73.693 E42.56372
G1 X16.835 Y73.112 E42.59558
G1 X16.45 Y72.687 E42.62276
G1 X16.45 Y69.313 E42.78267
G1 X16.835 Y68.888 E42.80985
G1 X17.173 Y68.307 E42.84171
G1 X17.381 Y67.668 E42.87356
G1 X17.451 Y67 E42.90539
G1 X17.381 Y66.332 E42.93722
G1 X17.173 Y65.693 E42.96907
G1 X16.835 Y65.112 E43.00093
G1 X16.45 Y64.687 E43.02811
G1 X16.45 Y5.2 E45.84754
G1 X83.55 Y5.2 E49.02779
G1 X83.55 Y64.786 E51.85191
G1 X83.202 Y65.202 E51.87761
G1 X82.899 Y65.76 E51.90771
G1 X82.712 Y66.367 E51.93781
G1 X82.649 Y67 E51.96796
G1 X82.712 Y67.633 E51.99811
G1 X82.899 Y68.24 E52.02822
G1 X83.202 Y68.798 E52.05831
G1 X83.55 Y69.214 E52.08402
G1 X83.55 Y72.786 E52.25331
G1 X83.202 Y73.202 E52.27902
G1 X82.899 Y73.76 E52.30911
G1 X82.712 Y74.367 E52.33922
G1 X82.649 Y75 E52.36937
G1 X82.712 Y75.633 E52.39952
G1 X82.899 Y76.24 E52.42962
G1 X83.202 Y76.798 E52.45971
G1 X83.55 Y77.214 E52.48542
G1 X83.55 Y80.786 E52.65472
G1 X83.202 Y81.202 E52.68042
G1 X82.899 Y81.76 E52.71052
G1 X82.712 Y82.367 E52.74062
G1 X82.649 Y83 E52.77077
G1 X82.712 Y83.633 E52.80092
G1 X82.899 Y84.24 E52.83102
G1 X83.202 Y84.798 E52.86112
G1 X83.55 Y85.214 E52.88682
G1 X83.55 Y88.786 E53.05612
G1 X83.202 Y89.202 E53.08183
G1 X82.899 Y89.76 E53.11192
G1 X82.712 Y90.367 E53.14202
G1 X82.649 Y91 E53.17217
G1 X82.712 Y91.633 E53.20232
G1 X82.899 Y92.24 E53.23243
G1 X83.202 Y92.798 E53.26252
G1 X83.55 Y93.214 E53.28823
G1 X83.55 Y114.8 E54.31131
G1 X37.45 Y114.8 E56.49625
G1 X37.45 Y111.8 E56.63844
G1 X21.05 Y111.8 E57.41573
G0 F3600 X21.05 Y112
G0 X20.55 Y112
G0 X20.622 Y111.372
G0 X37.622 Y92.372
G0 X38.05 Y92.8
G1 F1320 X38.05 Y107.2 E58.09823
G1 X78.45 Y107.2 E60.01301
G1 X78.45 Y92.8 E60.69551
G1 X38.05 Y92.8 E62.6103
G0 F3600 X38.05 Y93
G0 X37.55 Y93
G0 X37.26 Y92.01
;TYPE:SKIN
G1 F1320 X37.26 Y107.99 E63.36768
G1 X79.24 Y107.99 E65.35735
G1 X79.24 Y92.01 E66.11473
G1 X37.26 Y92.01 E68.10441
G0 F3600 X37.622 Y107.628
G0 X38.24 Y111.01
G1 F1320 X20.26 Y111.01 E68.95658
G1 X20.26 Y114.01 E69.09877
G1 X17.24 Y114.01 E69.2419
G1 X17.24 Y93.618 E70.20839
G1 X17.476 Y93.357 E70.22507
G1 X17.898 Y92.631 E70.26487
G1 X18.158 Y91.834 E70.30461
G1 X18.245 Y91 E70.34435
G1 X18.158 Y90.166 E70.38409
G1 X17.898 Y89.369 E70.42382
G1 X17.476 Y88.643 E70.46362
G1 X17.24 Y88.382 E70.4803
G1 X17.24 Y85.618 E70.6113
G1 X17.476 Y85.357 E70.62798
G1 X17.898 Y84.631 E70.66778
G1 X18.158 Y83.834 E70.70751
G1 X18.245 Y83 E70.74726
G1 X18.158 Y82.166 E70.787
G1 X17.898 Y81.369 E70.82673
G1 X17.476 Y80.643 E70.86653
G1 X17.24 Y80.382 E70.88321
G1 X17.24 Y77.618 E71.01421
G1 X17.476 Y77.357 E71.03089
G1 X17.898 Y76.631 E71.07069
G1 X18.158 Y75.834 E71.11042
G1 X18.245 Y75 E71.15017
G1 X18.158 Y74.166 E71.18991
G1 X17.898 Y73.369 E71.22964
G1 X17.476 Y72.643 E71.26944
G1 X17.24 Y72.382 E71.28612
G1 X17.24 Y69.618 E71.41712
G1 X17.476 Y69.357 E71.4338
G1 X17.898 Y68.631 E71.4736
G1 X18.158 Y67.834 E71.51333
G1 X18.245 Y67 E71.55307
G1 X18.158 Y66.166 E71.59282
G1 X17.898 Y65.369 E71.63255
G1 X17.476 Y64.643 E71.67235
G1 X17.24 Y64.382 E71.68903
G1 X17.24 Y5.99 E74.45656
G1 X82.76 Y5.99 E77.56192
G1 X82.76 Y64.499 E80.335
G1 X82.546 Y64.756 E80.35085
G1 X82.167 Y65.452 E80.38841
G1 X81.934 Y66.21 E80.42599
G1 X81.855 Y67 E80.46362
G1 X81.934 Y67.79 E80.50125
G1 X82.167 Y68.548 E80.53884
G1 X82.546 Y69.244 E80.5764
G1 X82.76 Y69.501 E80.59225
G1 X82.76 Y72.499 E80.73434
G1 X82.546 Y72.756 E80.75019
G1 X82.167 Y73.452 E80.78775
G1 X81.934 Y74.21 E80.82534
G1 X81.855 Y75 E80.86297
G1 X81.934 Y75.79 E80.9006
G1 X82.167 Y76.548 E80.93818
G1 X82.546 Y77.244 E80.97574
G1 X82.76 Y77.501 E80.99159
G1 X82.76 Y80.499 E81.13369
G1 X82.546 Y80.756 E81.14954
G1 X82.167 Y81.452 E81.1871
G1 X81.934 Y82.21 E81.22468
G1 X81.855 Y83 E81.26231
G1 X81.934 Y83.79 E81.29994
G1 X82.167 Y84.548 E81.33753
G1 X82.546 Y85.244 E81.37509
G1 X82.76 Y85.501 E81.39094
G1 X82.76 Y88.499 E81.53303
G1 X82.546 Y88.756 E81.54888
G1 X82.167 Y89.452 E81.58644
G1 X81.934 Y90.21 E81.62403
G1 X81.855 Y91 E81.66166
G1 X81.934 Y91.79 E81.69929
G1 X82.167 Y92.548 E81.73687
G1 X82.546 Y93.244 E81.77443
G1 X82.76 Y93.501 E81.79028
G1 X82.76 Y114.01 E82.76232
G1 X38.24 Y114.01 E84.87238
G1 X38.24 Y111.01 E85.01456
G0 F3600 X20.622 Y111.372
G0 X17.662 Y113.829
G1 F1320 X17.419 Y113.586 E85.03085
G0 F3600 X17.419 Y113.02
G1 F1320 X18.228 Y113.829 E85.08508
G0 F3600 X18.794 Y113.829
G1 F1320 X17.419 Y112.454 E85.17724
G0 F3600 X17.419 Y111.889
G1 F1320 X19.359 Y113.829 E85.30727
G0 F3600 X19.925 Y113.829
G1 F1320 X17.419 Y111.323 E85.47524
G0 F3600 X17.419 Y110.757
G1 F1320 X20.08 Y113.418 E85.65361
G0 F3600 X20.08 Y112.852
G1 F1320 X17.419 Y110.191 E85.83197
G0 F3600 X17.419 Y109.626
G1 F1320 X20.08 Y112.287 E86.01033
G0 F3600 X20.08 Y111.721
G1 F1320 X17.419 Y109.06 E86.18869
G0 F3600 X17.419 Y108.494
G1 F1320 X20.08 Y111.155 E86.36705
G0 F3600 X20.319 Y110.829
G1 F1320 X17.419 Y107.929 E86.56143
G0 F3600 X17.419 Y107.363
G1 F1320 X20.885 Y110.829 E86.79375
G0 F3600 X21.45 Y110.829
G1 F1320 X17.419 Y106.797 E87.06397
G0 F3600 X17.419 Y106.232
G1 F1320 X22.016 Y110.829 E87.37209
G0 F3600 X22.582 Y110.829
G1 F1320 X17.419 Y105.666 E87.71816
G0 F3600 X17.419 Y105.1
G1 F1320 X23.147 Y110.829 E88.10212
G0 F3600 X23.713 Y110.829
G1 F1320 X17.419 Y104.535 E88.524
G0 F3600 X17.419 Y103.969
G1 F1320 X24.279 Y110.829 E88.98381
G0 F3600 X24.844 Y110.829
G1 F1320 X17.419 Y103.403 E89.48152
G0 F3600 X17.419 Y102.838
G1 F1320 X25.41 Y110.829 E90.01714
G0 F3600 X25.976 Y110.829
G1 F1320 X17.419 Y102.272 E90.59069
G0 F3600 X17.419 Y101.706
G1 F1320 X26.541 Y110.829 E91.20215
G0 F3600 X27.107 Y110.829
G1 F1320 X17.419 Y101.141 E91.85152
G0 F3600 X17.419 Y100.575
G1 F1320 X27.673 Y110.829 E92.53882
G0 F3600 X28.239 Y110.829
G1 F1320 X17.419 Y100.009 E93.26406
G0 F3600 X17.419 Y99.443
G1 F1320 X28.804 Y110.829 E94.0272
G0 F3600 X29.37 Y110.829
G1 F1320 X17.419 Y98.878 E94.82825
G0 F3600 X17.419 Y98.312
G1 F1320 X29.936 Y110.829 E95.66723
G0 F3600 X30.501 Y110.829
G1 F1320 X17.419 Y97.746 E96.54412
G0 F3600 X17.419 Y97.181
G1 F1320 X31.067 Y110.829 E97.45891
G0 F3600 X31.633 Y110.829
G1 F1320 X17.419 Y96.615 E98.41164
G0 F3600 X17.419 Y96.049
G1 F1320 X32.198 Y110.829 E99.40228
G0 F3600 X32.764 Y110.829
G1 F1320 X17.419 Y95.484 E100.43082
G0 F3600 X17.419 Y94.918
G1 F1320 X33.33 Y110.829 E101.49729
G0 F3600 X33.895 Y110.829
G1 F1320 X17.419 Y94.352 E102.60168
G0 F3600 X17.419 Y93.787
G1 F1320 X34.461 Y110.829 E103.74396
G0 F3600 X35.027 Y110.829
G1 F1320 X17.636 Y93.438 E104.90964
G0 F3600 X17.844 Y93.08
G1 F1320 X35.592 Y110.829 E106.09928
G0 F3600 X36.158 Y110.829
G1 F1320 X18.052 Y92.722 E107.31291
G0 F3600 X18.194 Y92.299
G1 F1320 X36.724 Y110.829 E108.55494
G0 F3600 X37.289 Y110.829
G1 F1320 X18.333 Y91.872 E109.82555
G0 F3600 X18.387 Y91.361
G1 F1320 X37.855 Y110.829 E111.13044
G0 F3600 X38.419 Y111.393
G1 F1320 X40.855 Y113.829 E111.29372
G0 F3600 X40.29 Y113.829
G1 F1320 X38.419 Y111.959 E111.41909
G0 F3600 X38.419 Y112.524
G1 F1320 X39.724 Y113.829 E111.50656
G0 F3600 X39.158 Y113.829
G1 F1320 X38.419 Y113.09 E111.5561
G0 F3600 X38.419 Y113.656
G1 F1320 X38.593 Y113.829 E111.56773
G0 F3600 X41.421 Y113.829
G1 F1320 X18.406 Y90.814 E113.11037
G0 F3600 X18.34 Y90.182
G1 F1320 X41.987 Y113.829 E114.69537
G0 F3600 X42.552 Y113.829
G1 F1320 X18.085 Y89.362 E116.33534
G1 X18.015 Y89.292
G0 F3600 X17.419 Y88.13
G1 F1320 X37.079 Y107.79 E117.6531
G0 F3600 X37.458 Y108.169
G1 F1320 X43.118 Y113.829 E118.03248
G0 F3600 X43.684 Y113.829
G1 F1320 X38.024 Y108.169 E118.41185
G0 F3600 X38.59 Y108.169
G1 F1320 X44.25 Y113.829 E118.79123
G0 F3600 X44.815 Y113.829
G1 F1320 X39.156 Y108.169 E119.17057
G0 F3600 X39.721 Y108.169
G1 F1320 X45.381 Y113.829 E119.54995
G0 F3600 X45.947 Y113.829
G1 F1320 X40.287 Y108.169 E119.92932
G0 F3600 X40.853 Y108.169
G1 F1320 X46.512 Y113.829 E120.30867
G0 F3600 X47.078 Y113.829
G1 F1320 X41.418 Y108.169 E120.68804
G0 F3600 X41.984 Y108.169
G1 F1320 X47.644 Y113.829 E121.06742
G0 F3600 X48.209 Y113.829
G1 F1320 X42.55 Y108.169 E121.44676
G0 F3600 X43.115 Y108.169
G1 F1320 X48.775 Y113.829 E121.82614
G0 F3600 X49.341 Y113.829
G1 F1320 X43.681 Y108.169 E122.20552
G0 F3600 X44.247 Y108.169
G1 F1320 X49.906 Y113.829 E122.58486
G0 F3600 X50.472 Y113.829
G1 F1320 X44.812 Y108.169 E122.96423
G0 F3600 X45.378 Y108.169
G1 F1320 X51.038 Y113.829 E123.34361
G0 F3600 X51.603 Y113.829
G1 F1320 X45.944 Y108.169 E123.72295
G0 F3600 X46.509 Y108.169
G1 F1320 X52.169 Y113.829 E124.10233
G0 F3600 X52.735 Y113.829
G1 F1320 X47.075 Y108.169 E124.48171
G0 F3600 X47.641 Y108.169
G1 F1320 X53.301 Y113.829 E124.86108
G0 F3600 X53.866 Y113.829
G1 F1320 X48.207 Y108.169 E125.24043
G0 F3600 X48.772 Y108.169
G1 F1320 X54.432 Y113.829 E125.6198
G0 F3600 X54.998 Y113.829
