;FilamentType:PLA
;MachineType:ENTINA TINA2
;Extruder0Temperature:200
;BedTemperature:40
;InfillDensity:90
;FLAVOR:Marlin
;TIME:11487
;FilamentUsed: 7845.97
;Layer height: 0.15
;MINX:6.808
;MINY:3.3
;MINZ:0.3
;MAXX:93.192
;MAXY:116.491
;MAXZ:10.95
;Generated with Cura_SteamEngine 4.10.0
M82 ;absolute extrusion mode
;(**** start.gcode for TINA2****)
M104 S150
G28 Z
G28 X Y; Home extruder
G1 X55 Y55 F1000
G1 Z10 F200
G29
G1 Z15 F100
M107 ; Turn off fan
G90 ; Absolute positioning
M82 ; Extruder in absolute mode
M109 S215
G92 E0 ; Reset extruder position
G1 X90 Y6 Z0.27 F2000
G1 X20 Y6 Z0.27 E15 F1000 
G92 E0 ; Reset extruder position

M203 Z5
G92 E0
G92 E0
G1 F2100 E-3
;LAYER_COUNT:72
;LAYER:0
M107
G0 F3600 X12.197 Y5.464 Z0.3
;TYPE:SKIRT
G1 F2100 E0
G1 F1800 X12.399 Y5.001 E0.02394
G1 X12.672 Y4.575 E0.04792
G1 X13.008 Y4.198 E0.07186
G1 X13.4 Y3.879 E0.09581
G1 X13.837 Y3.625 E0.11977
G1 X14.309 Y3.443 E0.14374
G1 X14.804 Y3.337 E0.16774
G1 X15.45 Y3.301 E0.1984
G1 X82.129 Y3.3 E3.3587
G1 X82.827 Y3.31 E3.39178
G1 X83.33 Y3.357 E3.41573
G1 X83.82 Y3.483 E3.43971
G1 X84.284 Y3.685 E3.46369
G1 X84.71 Y3.957 E3.48765
G1 X85.088 Y4.292 E3.51159
G1 X85.408 Y4.683 E3.53553
G1 X85.663 Y5.12 E3.55951
G1 X85.846 Y5.591 E3.58346
G1 X85.953 Y6.085 E3.60742
G1 X85.989 Y6.739 E3.63846
G1 X85.995 Y39.965 E5.21323
G1 X86.035 Y42.762 E5.34581
G1 X86.15 Y45.479 E5.4747
G1 X86.345 Y48.225 E5.60518
G1 X86.613 Y50.931 E5.73406
G1 X86.961 Y53.654 E5.86417
G1 X87.386 Y56.355 E5.99376
G1 X87.889 Y59.063 E6.1243
G1 X88.461 Y61.72 E6.25312
G1 X89.109 Y64.367 E6.38228
G1 X89.836 Y67.007 E6.51206
G1 X90.648 Y69.66 E6.64356
G1 X91.34 Y71.729 E6.74696
G1 X91.804 Y73.068 E6.81412
G1 X91.902 Y73.416 E6.83126
G1 X92.189 Y74.697 E6.89348
G1 X92.288 Y75.166 E6.9162
G1 X92.796 Y77.224 E7.01666
G1 X93.039 Y78.255 E7.06687
G1 X93.131 Y78.809 E7.09348
G1 X93.189 Y79.538 E7.12815
G1 X93.173 Y80.705 E7.18346
G1 X93.173 Y83.457 E7.31389
G1 X93.191 Y84.222 E7.35016
G1 X93.192 Y84.344 E7.35594
G1 X93.172 Y85.709 E7.42065
G1 X93.172 Y88.467 E7.55136
G1 X93.191 Y89.407 E7.59592
G1 X93.173 Y90.705 E7.65745
G1 X93.173 Y93.458 E7.78793
G1 X93.191 Y94.24 E7.825
G1 X93.192 Y94.359 E7.83064
G1 X93.173 Y95.706 E7.89449
G1 X93.173 Y98.458 E8.02493
G1 X93.191 Y99.24 E8.062
G1 X93.192 Y99.359 E8.06764
G1 X93.173 Y100.706 E8.13149
G1 X93.173 Y103.458 E8.26192
G1 X93.191 Y104.234 E8.29871
G1 X93.171 Y104.846 E8.32773
G1 X93.124 Y105.245 E8.34677
G1 X92.965 Y106.219 E8.39355
G1 X92.702 Y107.705 E8.46507
G1 X92.295 Y110.455 E8.59683
G1 X92.047 Y112.584 E8.69842
G1 X91.955 Y113.305 E8.73287
G1 X91.852 Y113.8 E8.75683
G1 X91.589 Y114.461 E8.79055
G1 X91.348 Y114.905 E8.81449
G1 X91.04 Y115.306 E8.83846
G1 X90.672 Y115.653 E8.86243
G1 X90.174 Y115.983 E8.89074
G1 X89.972 Y116.091 E8.9016
G1 X89.508 Y116.293 E8.92558
G1 X89.019 Y116.42 E8.94953
G1 X88.528 Y116.468 E8.97291
G1 X87.374 Y116.491 E9.02762
G1 X12.261 Y116.49 E12.58765
G1 X11.563 Y116.48 E12.62074
G1 X11.06 Y116.433 E12.64468
G1 X10.57 Y116.307 E12.66866
G1 X9.9 Y116.006 E12.70347
G1 X9.466 Y115.748 E12.7274
G1 X9.077 Y115.424 E12.7514
G1 X8.725 Y115.018 E12.77686
G1 X8.453 Y114.592 E12.80082
G1 X8.192 Y113.934 E12.83437
G1 X8.038 Y113.24 E12.86806
G1 X7.903 Y112.112 E12.92191
G1 X7.864 Y111.739 E12.93968
G1 X7.498 Y109.002 E13.07056
G1 X7.029 Y106.204 E13.20502
G1 X6.851 Y105.034 E13.26111
G1 X6.81 Y104.45 E13.28886
G1 X6.827 Y103.272 E13.3447
G1 X6.827 Y100.521 E13.47508
G1 X6.809 Y99.749 E13.51168
G1 X6.808 Y99.629 E13.51737
G1 X6.827 Y98.273 E13.58164
G1 X6.827 Y95.521 E13.71208
G1 X6.809 Y94.749 E13.74868
G1 X6.808 Y94.629 E13.75436
G1 X6.827 Y93.273 E13.81864
G1 X6.827 Y90.521 E13.94907
G1 X6.809 Y89.749 E13.98567
G1 X6.808 Y89.629 E13.99136
G1 X6.827 Y88.273 E14.05563
G1 X6.827 Y85.521 E14.18607
G1 X6.809 Y84.754 E14.22243
G1 X6.808 Y84.634 E14.22812
G1 X6.827 Y83.294 E14.29163
G1 X6.827 Y80.542 E14.42207
G1 X6.809 Y79.766 E14.45886
G1 X6.832 Y79.125 E14.48926
G1 X6.925 Y78.45 E14.52155
G1 X7.051 Y77.902 E14.5482
G1 X7.804 Y74.675 E14.70526
G1 X8.091 Y73.342 E14.76988
G1 X8.134 Y73.165 E14.77852
G1 X8.505 Y71.818 E14.84473
G1 X9.141 Y69.402 E14.96314
G1 X9.759 Y66.772 E15.09119
G1 X10.306 Y64.085 E15.22115
G1 X10.781 Y61.381 E15.35127
G1 X11.173 Y58.698 E15.47979
G1 X11.496 Y55.958 E15.61055
G1 X11.737 Y53.249 E15.73945
G1 X11.904 Y50.503 E15.86984
G1 X11.991 Y47.785 E15.99873
G1 X12.007 Y46.004 E16.08314
G1 X12.01 Y7.121 E17.92603
G1 X12.021 Y6.457 E17.95751
G1 X12.07 Y5.954 E17.98146
G1 X12.197 Y5.464 E18.00545
G0 F3600 X10.308 Y78.921
;TYPE:SUPPORT
G1 F1320 X10.307 Y80.071 E18.05995
G1 X10.26 Y79.956 E18.06584
G1 X10.201 Y79.506 E18.08735
G1 X10.308 Y78.921 E18.11554
G0 F3600 X10.307 Y83.926
G1 F1320 X10.307 Y85.071 E18.16981
G1 X10.26 Y84.956 E18.1757
G1 X10.201 Y84.501 E18.19744
G1 X10.307 Y83.926 E18.22515
G0 F3600 X10.308 Y88.924
G1 F1320 X10.308 Y90.073 E18.27961
G1 X10.26 Y89.956 E18.2856
G1 X10.201 Y89.501 E18.30735
G1 X10.308 Y88.924 E18.33516
G0 F3600 X10.308 Y93.924
G1 F1320 X10.308 Y95.073 E18.38962
G1 X10.26 Y94.956 E18.39562
G1 X10.201 Y94.501 E18.41736
G1 X10.308 Y93.924 E18.44517
G0 F3600 X10.309 Y98.922
G1 F1320 X10.309 Y100.075 E18.49982
G1 X10.26 Y99.956 E18.50592
G1 X10.201 Y99.501 E18.52767
G1 X10.309 Y98.922 E18.55558
G0 F3600 X10.309 Y103.922
G1 F1320 X10.309 Y105.073 E18.61013
G1 X10.26 Y104.956 E18.61615
G1 X10.201 Y104.501 E18.63789
G1 X10.309 Y103.922 E18.66581
G1 F2100 E15.66581
G0 F3600 X10.576 Y113.117
G0 X10.97 Y113.753
G0 X11.529 Y113.954
G0 X88.639 Y113.921
G0 X89.266 Y113.509
G0 X89.693 Y103.929
G1 F2100 E18.66581
G1 F1320 X89.74 Y104.044 E18.6717
G1 X89.799 Y104.494 E18.69321
G1 X89.692 Y105.079 E18.72139
G1 X89.693 Y103.929 E18.7759
G0 F3600 X89.693 Y100.074
G1 F1320 X89.693 Y98.929 E18.83017
G1 X89.74 Y99.044 E18.83605
G1 X89.799 Y99.499 E18.8578
G1 X89.693 Y100.074 E18.88551
G0 F3600 X89.694 Y95.071
G1 F1320 X89.694 Y93.932 E18.9395
G1 X89.799 Y94.491 E18.96645
G1 X89.694 Y95.071 E18.99439
G0 F3600 X89.694 Y90.072
G1 F1320 X89.693 Y88.93 E19.04852
G1 X89.743 Y89.059 E19.05507
G1 X89.799 Y89.499 E19.07609
G1 X89.694 Y90.072 E19.1037
G0 F3600 X89.693 Y85.076
G1 F1320 X89.692 Y83.928 E19.15811
G1 X89.74 Y84.044 E19.16406
G1 X89.799 Y84.5 E19.18586
G1 X89.693 Y85.076 E19.21362
G0 F3600 X89.692 Y80.076
G1 F1320 X89.692 Y78.927 E19.26807
G1 X89.741 Y79.045 E19.27413
G1 X89.799 Y79.499 E19.29582
G1 X89.692 Y80.076 E19.32364
G1 F2100 E16.32364
;MESH:RTO11a_Cart_Bottom-MeshFinal3dprint.stl
G0 F3600 X88.191 Y80.076
G0 X82.099 Y68.589
G0 X82.191 Y68.551
;TYPE:WALL-INNER
G1 F2100 E19.32364
G1 F1320 X88.191 Y74.372 E19.71985
G1 X88.194 Y93.861 E20.64354
G1 X88.191 Y112.691 E21.536
G1 X11.81 Y112.69 E25.15613
G1 X11.807 Y81.999 E26.61075
G1 X11.809 Y74.202 E26.9803
G1 X15.809 Y68.381 E27.31505
G1 X15.806 Y55.607 E27.92048
G1 X15.81 Y7.1 E30.2195
G1 X82.19 Y7.1 E33.36563
G1 X82.195 Y36.802 E34.77338
G1 X82.191 Y68.551 E36.27814
G0 F3600 X82.099 Y68.589
G0 X72.013 Y69.855
G0 X70.806 Y69.599
G0 X70.853 Y69.511
G1 F1320 X71.555 Y69.757 E36.3134
G1 X72.012 Y69.816 E36.33524
G1 X72.743 Y69.677 E36.3705
G1 X73.168 Y69.5 E36.39232
G1 X73.732 Y69.014 E36.42761
G1 X74.011 Y68.647 E36.44946
G1 X74.257 Y67.945 E36.48472
G1 X74.316 Y67.488 E36.50656
G1 X74.177 Y66.757 E36.54182
G1 X74 Y66.332 E36.56364
G1 X73.514 Y65.768 E36.59893
G1 X73.147 Y65.489 E36.62078
G1 X72.445 Y65.243 E36.65604
G1 X71.988 Y65.184 E36.67788
G1 X71.257 Y65.323 E36.71314
G1 X70.832 Y65.5 E36.73496
G1 X70.268 Y65.986 E36.77025
G1 X69.989 Y66.353 E36.7921
G1 X69.743 Y67.055 E36.82735
G1 X69.684 Y67.512 E36.84919
G1 X69.823 Y68.243 E36.88446
G1 X70 Y68.668 E36.90628
G1 X70.486 Y69.232 E36.94157
G1 X70.853 Y69.511 E36.96342
G0 F3600 X70.806 Y69.599
G0 X26.268 Y70.056
G0 X25.066 Y69.775
G0 X25.115 Y69.689
G1 F1320 X25.761 Y69.94 E36.99626
G1 X26.268 Y70.016 E37.02056
G1 X26.953 Y69.91 E37.05342
G1 X27.431 Y69.721 E37.07778
G1 X27.969 Y69.288 E37.11051
G1 X28.284 Y68.891 E37.13453
G1 X28.532 Y68.316 E37.16421
G1 X28.608 Y67.648 E37.19607
G1 X28.529 Y67.081 E37.22321
G1 X28.283 Y66.509 E37.25272
G1 X27.889 Y66.023 E37.28237
G1 X27.396 Y65.668 E37.31116
G1 X26.907 Y65.467 E37.33622
G1 X26.296 Y65.386 E37.36543
G1 X25.635 Y65.494 E37.39718
G1 X25.169 Y65.679 E37.42094
G1 X24.631 Y66.112 E37.45367
G1 X24.311 Y66.515 E37.47806
G1 X24.06 Y67.161 E37.51091
G1 X23.984 Y67.668 E37.53521
G1 X24.09 Y68.353 E37.56806
G1 X24.279 Y68.831 E37.59242
G1 X24.712 Y69.369 E37.62515
G1 X25.115 Y69.689 E37.64954
G0 F3600 X25.864 Y69.551
;TYPE:WALL-OUTER
G1 F1320 X26.267 Y69.611 E37.66885
G1 X26.847 Y69.522 E37.69666
G1 X27.227 Y69.371 E37.71605
G1 X27.684 Y69.004 E37.74382
G1 X27.938 Y68.684 E37.76319
G1 X28.141 Y68.212 E37.78754
G1 X28.205 Y67.653 E37.81421
G1 X28.14 Y67.19 E37.83637
G1 X27.937 Y66.718 E37.86072
G1 X27.612 Y66.316 E37.88522
G1 X27.201 Y66.02 E37.90923
G1 X26.803 Y65.857 E37.92961
G1 X26.302 Y65.79 E37.95357
G1 X25.743 Y65.882 E37.98042
G1 X25.373 Y66.029 E37.99929
G1 X24.916 Y66.396 E38.02707
G1 X24.662 Y66.716 E38.04643
G1 X24.449 Y67.264 E38.0743
G1 X24.389 Y67.667 E38.09361
G1 X24.478 Y68.247 E38.12142
G1 X24.629 Y68.627 E38.1408
G1 X24.996 Y69.084 E38.16858
G1 X25.316 Y69.338 E38.18794
G1 X25.864 Y69.551 E38.21581
G0 F3600 X26.062 Y69.58
G0 X25.988 Y70.075
G0 X70.879 Y69.625
G0 X71.045 Y69.155
G1 F1320 X71.647 Y69.366 E38.24604
G1 X72 Y69.411 E38.26291
G1 X72.627 Y69.292 E38.29316
G1 X72.955 Y69.155 E38.31
G1 X73.439 Y68.738 E38.34028
G1 X73.655 Y68.455 E38.35716
G1 X73.866 Y67.853 E38.38739
G1 X73.911 Y67.5 E38.40426
G1 X73.792 Y66.873 E38.4345
G1 X73.655 Y66.545 E38.45135
G1 X73.238 Y66.061 E38.48163
G1 X72.955 Y65.845 E38.4985
G1 X72.353 Y65.634 E38.52874
G1 X72 Y65.589 E38.5456
G1 X71.373 Y65.708 E38.57585
G1 X71.045 Y65.845 E38.5927
G1 X70.561 Y66.262 E38.62298
G1 X70.345 Y66.545 E38.63985
G1 X70.134 Y67.147 E38.67009
G1 X70.089 Y67.5 E38.68695
G1 X70.208 Y68.127 E38.7172
G1 X70.345 Y68.455 E38.73405
G1 X70.762 Y68.939 E38.76433
G1 X71.045 Y69.155 E38.7812
G0 F3600 X71.234 Y69.221
G0 X71.068 Y69.692
G0 X71.918 Y69.838
G0 X82.092 Y68.381
G0 X82.591 Y68.382
G1 F1320 X88.591 Y74.202 E39.17738
G1 X88.594 Y93.861 E40.10913
G1 X88.591 Y112.871 E41.01012
G1 X88.528 Y113.029 E41.01818
G1 X88.382 Y113.091 E41.0257
G1 X11.612 Y113.09 E44.66427
G1 X11.471 Y113.029 E44.67155
G1 X11.41 Y112.875 E44.6794
G1 X11.407 Y81.999 E46.14279
G1 X11.409 Y74.077 E46.51826
G1 X15.409 Y68.257 E46.85297
G1 X15.406 Y55.607 E47.45253
G1 X15.41 Y6.7 E49.77051
G1 X82.59 Y6.7 E52.95455
G1 X82.595 Y36.802 E54.38125
G1 X82.591 Y68.382 E55.87801
G0 F3600 X82.734 Y68.521
G0 X81.801 Y68.716
;TYPE:SKIN
G1 F1320 X87.801 Y74.537 E56.27422
G1 X87.804 Y93.861 E57.1901
G1 X87.801 Y112.301 E58.06407
G1 X12.2 Y112.3 E61.64723
G1 X12.197 Y81.999 E63.08337
G1 X12.199 Y74.324 E63.44713
G1 X16.199 Y68.502 E63.78192
G1 X16.196 Y55.607 E64.39309
G1 X16.2 Y7.49 E66.67363
G1 X81.8 Y7.49 E69.78279
G1 X81.805 Y36.802 E71.17205
G1 X81.801 Y68.716 E72.68463
G0 F3600 X74.71 Y67.476
G1 F1320 X74.553 Y66.644 E72.72476
G1 X74.336 Y66.125 E72.75143
G1 X73.783 Y65.483 E72.79159
G1 X73.334 Y65.142 E72.81831
G1 X72.535 Y64.861 E72.85845
G1 X71.976 Y64.79 E72.88516
G1 X71.144 Y64.947 E72.92529
G1 X70.625 Y65.164 E72.95195
G1 X69.983 Y65.717 E72.99211
G1 X69.642 Y66.166 E73.01883
G1 X69.361 Y66.965 E73.05897
G1 X69.29 Y67.524 E73.08568
G1 X69.447 Y68.356 E73.12581
G1 X69.664 Y68.875 E73.15247
G1 X70.217 Y69.517 E73.19263
G1 X70.666 Y69.858 E73.21935
G1 X71.465 Y70.139 E73.2595
G1 X72.024 Y70.21 E73.2862
G1 X72.856 Y70.053 E73.32633
G1 X73.375 Y69.836 E73.35299
G1 X74.017 Y69.283 E73.39315
G1 X74.358 Y68.834 E73.41988
G1 X74.639 Y68.035 E73.46002
G1 X74.71 Y67.476 E73.48673
G0 F3600 X74.034 Y66.311
G0 X73.541 Y65.739
G0 X72.454 Y65.205
G0 X29.002 Y67.643
G1 F1320 X28.908 Y66.975 E73.5187
G1 X28.62 Y66.306 E73.55322
G1 X28.16 Y65.737 E73.5879
G1 X27.587 Y65.325 E73.62135
G1 X27.008 Y65.087 E73.65102
G1 X26.29 Y64.992 E73.68534
G1 X25.53 Y65.116 E73.72184
G1 X24.97 Y65.338 E73.75039
G1 X24.352 Y65.835 E73.78798
G1 X23.969 Y66.318 E73.8172
G1 X23.681 Y67.06 E73.85492
G1 X23.59 Y67.668 E73.88406
G1 X23.711 Y68.456 E73.92184
G1 X23.938 Y69.03 E73.9511
G1 X24.435 Y69.648 E73.98868
G1 X24.918 Y70.031 E74.0179
G1 X25.66 Y70.319 E74.05562
G1 X26.268 Y70.41 E74.08476
G1 X27.056 Y70.289 E74.12255
G1 X27.63 Y70.062 E74.1518
G1 X28.248 Y69.565 E74.18939
G1 X28.622 Y69.093 E74.21793
G1 X28.913 Y68.417 E74.25281
G1 X29.002 Y67.643 E74.28974
G0 F3600 X12.558 Y112.118
G1 F1320 X12.379 Y111.939 E74.30174
G0 F3600 X12.379 Y111.374
G1 F1320 X13.123 Y112.118 E74.35161
G0 F3600 X13.689 Y112.118
G1 F1320 X12.379 Y110.808 E74.43941
G0 F3600 X12.379 Y110.242
G1 F1320 X14.255 Y112.118 E74.56516
G0 F3600 X14.82 Y112.118
G1 F1320 X12.379 Y109.677 E74.72877
G0 F3600 X12.379 Y109.111
G1 F1320 X15.386 Y112.118 E74.93032
G0 F3600 X15.952 Y112.118
G1 F1320 X12.379 Y108.545 E75.16981
G0 F3600 X12.379 Y107.98
G1 F1320 X16.518 Y112.118 E75.44721
G0 F3600 X17.083 Y112.118
G1 F1320 X12.379 Y107.414 E75.76251
G0 F3600 X12.379 Y106.848
G1 F1320 X17.649 Y112.118 E76.11574
G0 F3600 X18.215 Y112.118
G1 F1320 X12.379 Y106.283 E76.50688
G0 F3600 X12.378 Y105.716
G1 F1320 X18.78 Y112.118 E76.93599
G0 F3600 X19.346 Y112.118
G1 F1320 X12.378 Y105.151 E77.40301
G0 F3600 X12.378 Y104.585
G1 F1320 X19.912 Y112.118 E77.90796
G0 F3600 X20.477 Y112.118
G1 F1320 X12.378 Y104.019 E78.45082
G0 F3600 X12.378 Y103.453
G1 F1320 X21.043 Y112.118 E79.03161
G0 F3600 X21.609 Y112.118
G1 F1320 X12.378 Y102.888 E79.65031
G0 F3600 X12.378 Y102.322
G1 F1320 X22.174 Y112.118 E80.30691
G0 F3600 X22.74 Y112.118
G1 F1320 X12.378 Y101.756 E81.00145
G0 F3600 X12.378 Y101.191
G1 F1320 X23.306 Y112.118 E81.7339
G0 F3600 X23.871 Y112.118
G1 F1320 X12.378 Y100.625 E82.50424
G0 F3600 X12.377 Y100.059
G1 F1320 X24.437 Y112.118 E83.31256
G0 F3600 X25.003 Y112.118
G1 F1320 X12.377 Y99.493 E84.15882
G0 F3600 X12.377 Y98.927
G1 F1320 X25.568 Y112.118 E85.04298
G0 F3600 X26.134 Y112.118
G1 F1320 X12.377 Y98.362 E85.96505
G0 F3600 X12.377 Y97.796
G1 F1320 X26.7 Y112.118 E86.92505
G0 F3600 X27.266 Y112.118
G1 F1320 X12.377 Y97.23 E87.92299
G0 F3600 X12.377 Y96.665
G1 F1320 X27.831 Y112.118 E88.9588
G0 F3600 X28.397 Y112.118
G1 F1320 X12.377 Y96.099 E90.03255
G0 F3600 X12.377 Y95.533
G1 F1320 X28.963 Y112.118 E91.14424
G0 F3600 X29.528 Y112.118
G1 F1320 X12.377 Y94.967 E92.29383
G0 F3600 X12.377 Y94.402
G1 F1320 X30.094 Y112.118 E93.48133
G0 F3600 X30.66 Y112.118
G1 F1320 X12.377 Y93.835 E94.70679
G0 F3600 X12.377 Y93.27
G1 F1320 X31.225 Y112.118 E95.97013
G0 F3600 X31.791 Y112.118
G1 F1320 X12.377 Y92.704 E97.2714
G0 F3600 X12.377 Y92.138
G1 F1320 X32.357 Y112.118 E98.61062
G0 F3600 X32.922 Y112.118
G1 F1320 X12.377 Y91.573 E99.9877
G0 F3600 X12.377 Y91.007
G1 F1320 X33.488 Y112.118 E101.40272
G0 F3600 X34.054 Y112.118
G1 F1320 X12.377 Y90.441 E102.85568
G0 F3600 X12.377 Y89.876
G1 F1320 X34.619 Y112.118 E104.34651
G0 F3600 X35.185 Y112.118
G1 F1320 X12.377 Y89.31 E105.87527
G0 F3600 X12.377 Y88.744
G1 F1320 X35.751 Y112.118 E107.44198
G0 F3600 X36.317 Y112.118
G1 F1320 X12.377 Y88.179 E109.04658
G0 F3600 X12.376 Y87.612
G1 F1320 X36.882 Y112.118 E110.68916
G0 F3600 X37.448 Y112.118
G1 F1320 X12.376 Y87.046 E112.36968
G0 F3600 X12.376 Y86.481
G1 F1320 X38.014 Y112.118 E114.0881
G0 F3600 X38.579 Y112.118
G1 F1320 X12.376 Y85.915 E115.84443
G0 F3600 X12.376 Y85.349
G1 F1320 X39.145 Y112.118 E117.63869
G0 F3600 X39.711 Y112.118
G1 F1320 X12.376 Y84.784 E119.47085
G0 F3600 X12.376 Y84.218
