;FilamentType:PLA
;MachineType:ENTINA TINA2
;Extruder0Temperature:200
;BedTemperature:40
;InfillDensity:90
;FLAVOR:Marlin
;TIME:13076
;FilamentUsed: 9449.08
;Layer height: 0.15
;MINX:6.809
;MINY:3.298
;MINZ:0.3
;MAXX:93.191
;MAXY:116.7
;MAXZ:16.95
;Generated with Cura_SteamEngine 4.10.0
M82 ;absolute extrusion mode
;(**** start.gcode for TINA2****)
M104 S150
G28 Z
G28 X Y; Home extruder
G1 X55 Y55 F1000
G1 Z10 F200
G29
G1 Z15 F100
M107 ; Turn off fan
G90 ; Absolute positioning
M82 ; Extruder in absolute mode
M109 S215
G92 E0 ; Reset extruder position
G1 X90 Y6 Z0.27 F2000
G1 X20 Y6 Z0.27 E15 F1000 
G92 E0 ; Reset extruder position

M203 Z5
G92 E0
G92 E0
G1 F2100 E-3
;LAYER_COUNT:112
;LAYER:0
M107
G0 F3600 X11.984 Y5.468 Z0.3
;TYPE:SKIRT
G1 F2100 E0
G1 F1800 X12.186 Y5.004 E0.02399
G1 X12.458 Y4.578 E0.04794
G1 X12.794 Y4.201 E0.07188
G1 X13.185 Y3.88 E0.09585
G1 X13.622 Y3.626 E0.11981
G1 X14.093 Y3.443 E0.14376
G1 X14.588 Y3.337 E0.16775
G1 X15.24 Y3.301 E0.1987
G1 X16.006 Y3.298 E0.235
G1 X17.037 Y3.3 E0.28387
G1 X81.293 Y3.305 E3.32933
G1 X82.345 Y3.3 E3.37919
G1 X83.037 Y3.31 E3.41199
G1 X83.541 Y3.358 E3.43599
G1 X84.03 Y3.483 E3.45991
G1 X84.494 Y3.685 E3.48389
G1 X84.92 Y3.957 E3.50785
G1 X85.298 Y4.293 E3.53182
G1 X85.619 Y4.684 E3.55579
G1 X85.873 Y5.12 E3.57971
G1 X86.056 Y5.592 E3.6037
G1 X86.163 Y6.086 E3.62766
G1 X86.199 Y6.74 E3.6587
G1 X86.2 Y40.04 E5.23698
G1 X86.24 Y42.837 E5.36956
G1 X86.355 Y45.554 E5.49845
G1 X86.55 Y48.3 E5.62892
G1 X86.818 Y51.006 E5.75781
G1 X87.166 Y53.729 E5.88791
G1 X87.591 Y56.43 E6.0175
G1 X88.094 Y59.138 E6.14805
G1 X88.666 Y61.795 E6.27686
G1 X89.314 Y64.442 E6.40602
G1 X90.041 Y67.082 E6.53581
G1 X90.852 Y69.733 E6.6672
G1 X91.599 Y71.962 E6.77862
G1 X92.012 Y73.149 E6.83819
G1 X92.164 Y73.746 E6.86738
G1 X92.608 Y76.181 E6.9847
G1 X92.893 Y77.573 E7.05204
G1 X93.032 Y78.225 E7.08364
G1 X93.067 Y78.418 E7.09293
G1 X93.145 Y78.939 E7.1179
G1 X93.191 Y79.537 E7.14633
G1 X93.162 Y82.277 E7.2762
G1 X93.188 Y83.849 E7.35071
G1 X93.191 Y84.533 E7.38313
G1 X93.162 Y87.277 E7.51319
G1 X93.189 Y88.914 E7.59079
G1 X93.191 Y89.532 E7.62008
G1 X93.16 Y92.261 E7.74943
G1 X93.189 Y94.034 E7.83348
G1 X93.19 Y94.732 E7.86656
G1 X93.161 Y97.133 E7.98036
G1 X93.189 Y98.858 E8.06213
G1 X93.191 Y99.546 E8.09474
G1 X93.162 Y102.277 E8.22419
G1 X93.189 Y103.919 E8.30202
G1 X93.19 Y104.439 E8.32667
G1 X93.117 Y105.273 E8.36635
G1 X92.971 Y106.29 E8.41504
G1 X92.614 Y109.022 E8.54563
G1 X92.34 Y111.703 E8.67336
G1 X92.177 Y113.75 E8.77068
G1 X92.105 Y114.225 E8.79345
G1 X91.95 Y114.707 E8.81745
G1 X91.722 Y115.158 E8.8414
G1 X91.425 Y115.567 E8.86536
G1 X91.068 Y115.925 E8.88932
G1 X90.659 Y116.222 E8.91328
G1 X90.208 Y116.45 E8.93723
G1 X89.726 Y116.605 E8.96123
G1 X89.08 Y116.69 E8.99211
G1 X88.67 Y116.7 E9.01155
G1 X11.661 Y116.7 E12.66144
G1 X10.963 Y116.69 E12.69453
G1 X10.46 Y116.643 E12.71847
G1 X9.97 Y116.517 E12.74245
G1 X9.506 Y116.315 E12.76643
G1 X9.08 Y116.043 E12.79039
G1 X8.702 Y115.708 E12.81433
G1 X8.382 Y115.317 E12.83828
G1 X8.127 Y114.88 E12.86226
G1 X7.944 Y114.409 E12.8862
G1 X7.821 Y113.764 E12.91733
G1 X7.747 Y112.905 E12.95819
G1 X7.663 Y111.744 E13.01336
G1 X7.391 Y109.024 E13.14292
G1 X6.957 Y105.737 E13.30006
G1 X6.856 Y105.065 E13.33227
G1 X6.809 Y104.454 E13.36131
G1 X6.838 Y101.723 E13.49076
G1 X6.811 Y100.086 E13.56835
G1 X6.809 Y99.454 E13.59831
G1 X6.838 Y96.722 E13.7278
G1 X6.811 Y95.049 E13.8071
G1 X6.809 Y94.454 E13.83531
G1 X6.838 Y91.723 E13.96475
G1 X6.811 Y90.071 E14.04306
G1 X6.809 Y89.457 E14.07216
G1 X6.839 Y86.693 E14.20317
G1 X6.812 Y85.191 E14.27437
G1 X6.81 Y84.466 E14.30873
G1 X6.838 Y81.695 E14.44007
G1 X6.811 Y80.092 E14.51606
G1 X6.81 Y79.56 E14.54127
G1 X6.883 Y78.725 E14.581
G1 X6.939 Y78.364 E14.59831
G1 X7.168 Y77.245 E14.65245
G1 X7.676 Y74.563 E14.78182
G1 X7.823 Y73.685 E14.82402
G1 X7.927 Y73.194 E14.8478
G1 X8.286 Y71.896 E14.91163
G1 X8.99 Y69.207 E15.04337
G1 X9.612 Y66.513 E15.17442
G1 X10.153 Y63.845 E15.30344
G1 X10.611 Y61.173 E15.43193
G1 X11.006 Y58.42 E15.56375
G1 X11.315 Y55.728 E15.69217
G1 X11.549 Y53.013 E15.82133
G1 X11.707 Y50.268 E15.95165
G1 X11.789 Y47.482 E16.08375
G1 X11.8 Y46.027 E16.15271
G1 X11.8 Y7.126 E17.99645
G1 X11.81 Y6.461 E18.02797
G1 X11.858 Y5.958 E18.05192
G1 X11.984 Y5.468 E18.0759
G1 F2100 E15.0759
G0 F3600 X16.157 Y5.839
G0 X16.9 Y6.7
;TYPE:SUPPORT
G1 F2100 E18.0759
G1 F1320 X81.1 Y6.705 E21.1187
G1 X81.1 Y20.6 E21.77727
G1 X16.9 Y20.6 E24.82007
G1 X16.9 Y6.7 E25.47887
G0 F3600 X17.06 Y8.001
G1 F1320 X80.94 Y8.001 E28.50651
G0 F3600 X80.01 Y6.865
G1 F1320 X80.01 Y20.44 E29.1499
G0 F3600 X80.94 Y18.669
G1 F1320 X17.06 Y18.669 E32.17754
G0 F3600 X18.669 Y20.44
G1 F1320 X18.669 Y6.861 E32.82113
G0 F3600 X21.336 Y6.861
G1 F1320 X21.336 Y20.44 E33.46471
G0 F3600 X24.003 Y20.44
G1 F1320 X24.003 Y6.861 E34.1083
G0 F3600 X26.67 Y6.861
G1 F1320 X26.67 Y20.44 E34.75189
G0 F3600 X29.337 Y20.44
G1 F1320 X29.337 Y6.861 E35.39547
G0 F3600 X32.004 Y6.862
G1 F1320 X32.004 Y20.44 E36.03901
G0 F3600 X34.671 Y20.44
G1 F1320 X34.671 Y6.862 E36.68255
G0 F3600 X37.338 Y6.862
G1 F1320 X37.338 Y20.44 E37.32609
G0 F3600 X40.005 Y20.44
G1 F1320 X40.005 Y6.862 E37.96963
G0 F3600 X42.672 Y6.863
G1 F1320 X42.672 Y20.44 E38.61312
G0 F3600 X45.339 Y20.44
G1 F1320 X45.339 Y6.863 E39.25661
G0 F3600 X48.006 Y6.863
G1 F1320 X48.006 Y20.44 E39.9001
G0 F3600 X50.673 Y20.44
G1 F1320 X50.673 Y6.863 E40.54359
G0 F3600 X53.34 Y6.863
G1 F1320 X53.34 Y20.44 E41.18708
G0 F3600 X56.007 Y20.44
G1 F1320 X56.007 Y6.864 E41.83053
G0 F3600 X58.674 Y6.864
G1 F1320 X58.674 Y20.44 E42.47397
G0 F3600 X61.341 Y20.44
G1 F1320 X61.341 Y6.864 E43.11742
G0 F3600 X64.008 Y6.864
G1 F1320 X64.008 Y20.44 E43.76086
G0 F3600 X66.675 Y20.44
G1 F1320 X66.675 Y6.864 E44.4043
G0 F3600 X69.342 Y6.865
G1 F1320 X69.342 Y20.44 E45.0477
G0 F3600 X72.009 Y20.44
G1 F1320 X72.009 Y6.865 E45.6911
G0 F3600 X74.676 Y6.865
G1 F1320 X74.676 Y20.44 E46.33449
G0 F3600 X77.343 Y20.44
G1 F1320 X77.343 Y6.865 E46.97789
G0 F3600 X80.94 Y10.668
G1 F1320 X17.06 Y10.668 E50.00553
G0 F3600 X17.06 Y13.335
G1 F1320 X80.94 Y13.335 E53.03316
G0 F3600 X80.94 Y16.002
G1 F1320 X17.06 Y16.002 E56.0608
G0 F3600 X16.9 Y24.4
G1 F1320 X81.1 Y24.4 E59.1036
G1 X81.1 Y68.642 E61.20048
G1 X81.277 Y69.052 E61.22165
G1 X87.1 Y74.7 E61.60613
G1 X87.1 Y110.6 E63.30764
G1 X12.9 Y110.6 E66.8244
G1 X12.9 Y74.599 E68.53069
G1 X16.801 Y68.923 E68.85712
G1 X16.9 Y68.604 E68.87295
G1 X16.9 Y24.4 E70.96803
G0 F3600 X25.421 Y63.235
G1 F1320 X25.183 Y63.315 E70.97993
G1 X24.353 Y63.66 E71.02253
G1 X24.23 Y63.733 E71.02931
G1 X23.443 Y64.337 E71.07633
G1 X23.341 Y64.439 E71.08316
G1 X22.754 Y65.205 E71.1289
G1 X22.625 Y65.431 E71.14124
G1 X22.277 Y66.27 E71.18429
G1 X22.223 Y66.468 E71.19401
G1 X22.105 Y67.384 E71.23779
G1 X22.112 Y67.661 E71.25092
G1 X22.231 Y68.559 E71.29385
G1 X22.298 Y68.778 E71.30471
G1 X22.639 Y69.605 E71.3471
G1 X22.77 Y69.818 E71.35896
G1 X23.29 Y70.5 E71.3996
G1 X23.466 Y70.682 E71.4116
G1 X24.246 Y71.279 E71.45816
G1 X24.372 Y71.351 E71.46504
G1 X25.295 Y71.731 E71.51235
G1 X25.434 Y71.77 E71.51919
G1 X26.429 Y71.899 E71.56674
G1 X26.572 Y71.899 E71.57352
G1 X27.573 Y71.767 E71.62137
G1 X27.712 Y71.729 E71.6282
G1 X28.641 Y71.343 E71.67588
G1 X28.764 Y71.27 E71.68266
G1 X29.562 Y70.66 E71.73027
G1 X29.665 Y70.557 E71.73717
G1 X30.256 Y69.788 E71.78314
G1 X30.361 Y69.607 E71.79306
G1 X30.719 Y68.738 E71.8376
G1 X30.774 Y68.534 E71.84762
G1 X30.899 Y67.571 E71.89364
G1 X30.899 Y67.428 E71.90042
G1 X30.768 Y66.43 E71.94812
G1 X30.729 Y66.291 E71.95497
G1 X30.344 Y65.361 E72.00267
G1 X30.271 Y65.238 E72.00945
G1 X29.664 Y64.444 E72.05682
G1 X29.561 Y64.341 E72.06372
G1 X28.776 Y63.738 E72.11064
G1 X28.654 Y63.663 E72.11743
G1 X27.711 Y63.269 E72.16587
G1 X27.569 Y63.231 E72.17283
G1 X26.575 Y63.101 E72.22035
G1 X26.431 Y63.101 E72.22717
G1 X25.421 Y63.235 E72.27546
G1 F2100 E69.27546
G0 F3600 X27.634 Y63.493
G0 X28.642 Y63.933
G0 X29.486 Y64.599
G0 X30.133 Y65.467
G0 X30.537 Y66.477
G0 X30.638 Y67.35
G0 X30.199 Y79.3
G1 F2100 E72.27546
G1 F1320 X29.8 Y79.699 E72.3022
G1 X29.8 Y105.301 E73.51563
G1 X30.199 Y105.7 E73.54237
G1 X37.801 Y105.7 E73.90267
G1 X38.2 Y105.301 E73.92942
G1 X38.2 Y79.699 E75.14284
G1 X37.801 Y79.3 E75.16959
G1 X30.199 Y79.3 E75.52989
G0 F3600 X57.407 Y99.722
G1 F1320 X56.737 Y100.242 E75.57009
G1 X56.233 Y100.896 E75.60922
G1 X55.909 Y101.657 E75.64842
G1 X55.797 Y102.483 E75.68793
G1 X55.905 Y103.303 E75.72713
G1 X56.217 Y104.091 E75.7673
G1 X56.746 Y104.771 E75.80813
G1 X57.399 Y105.271 E75.84711
G1 X58.177 Y105.602 E75.88718
G1 X59 Y105.7 E75.92646
G1 X59.823 Y105.602 E75.96575
G1 X60.601 Y105.271 E76.00582
G1 X61.254 Y104.771 E76.0448
G1 X61.783 Y104.091 E76.08563
G1 X62.095 Y103.303 E76.1258
G1 X62.203 Y102.483 E76.165
G1 X62.091 Y101.657 E76.20451
G1 X61.767 Y100.896 E76.24371
G1 X61.263 Y100.242 E76.28284
G1 X60.593 Y99.722 E76.32304
G1 X59.822 Y99.403 E76.36259
G1 X59 Y99.298 E76.40186
G1 X58.178 Y99.403 E76.44114
G1 X57.407 Y99.722 E76.48068
G0 F3600 X67.407 Y99.722
G1 F1320 X66.737 Y100.242 E76.52088
G1 X66.233 Y100.896 E76.56001
G1 X65.909 Y101.657 E76.59921
G1 X65.797 Y102.483 E76.63872
G1 X65.905 Y103.303 E76.67792
G1 X66.217 Y104.091 E76.71809
G1 X66.746 Y104.771 E76.75892
G1 X67.399 Y105.271 E76.7979
G1 X68.177 Y105.602 E76.83798
G1 X69 Y105.7 E76.87726
G1 X69.823 Y105.602 E76.91654
G1 X70.601 Y105.271 E76.95661
G1 X71.254 Y104.771 E76.99559
G1 X71.783 Y104.091 E77.03643
G1 X72.095 Y103.303 E77.07659
G1 X72.203 Y102.483 E77.11579
G1 X72.091 Y101.657 E77.1553
G1 X71.767 Y100.896 E77.1945
G1 X71.263 Y100.242 E77.23364
G1 X70.593 Y99.722 E77.27383
G1 X69.822 Y99.403 E77.31338
G1 X69 Y99.298 E77.35266
G1 X68.178 Y99.403 E77.39193
G1 X67.407 Y99.722 E77.43148
G0 F3600 X77.407 Y99.722
G1 F1320 X76.737 Y100.242 E77.47167
G1 X76.233 Y100.896 E77.51081
G1 X75.909 Y101.657 E77.55001
G1 X75.797 Y102.483 E77.58952
G1 X75.905 Y103.303 E77.62872
G1 X76.217 Y104.091 E77.66888
G1 X76.746 Y104.771 E77.70972
G1 X77.399 Y105.271 E77.7487
G1 X78.177 Y105.602 E77.78877
G1 X79 Y105.7 E77.82805
G1 X79.823 Y105.602 E77.86733
G1 X80.601 Y105.271 E77.90741
G1 X81.254 Y104.771 E77.94639
G1 X81.783 Y104.091 E77.98722
G1 X82.095 Y103.303 E78.02739
G1 X82.203 Y102.483 E78.06659
G1 X82.091 Y101.657 E78.1061
G1 X81.767 Y100.896 E78.1453
G1 X81.263 Y100.242 E78.18443
G1 X80.593 Y99.722 E78.22463
G1 X79.822 Y99.403 E78.26417
G1 X79 Y99.298 E78.30345
G1 X78.178 Y99.403 E78.34273
G1 X77.407 Y99.722 E78.38227
G1 F2100 E75.38227
G0 F3600 X67.954 Y68.46
G0 X67.84 Y67.406
G0 X67.984 Y66.455
G0 X68.841 Y64.439
G1 F2100 E78.38227
G1 F1320 X68.254 Y65.205 E78.42801
G1 X68.125 Y65.431 E78.44034
G1 X67.777 Y66.27 E78.48339
G1 X67.723 Y66.468 E78.49312
G1 X67.605 Y67.384 E78.5369
G1 X67.612 Y67.661 E78.55003
G1 X67.731 Y68.559 E78.59296
G1 X67.798 Y68.778 E78.60382
G1 X68.139 Y69.605 E78.64621
G1 X68.27 Y69.818 E78.65807
G1 X68.79 Y70.5 E78.69871
G1 X68.966 Y70.682 E78.71071
G1 X69.746 Y71.279 E78.75727
G1 X69.872 Y71.351 E78.76414
G1 X70.795 Y71.731 E78.81145
G1 X70.934 Y71.77 E78.8183
G1 X71.929 Y71.899 E78.86585
G1 X72.072 Y71.899 E78.87263
G1 X73.073 Y71.767 E78.92048
G1 X73.212 Y71.729 E78.92731
G1 X74.141 Y71.343 E78.97499
G1 X74.264 Y71.27 E78.98177
G1 X75.062 Y70.66 E79.02938
G1 X75.165 Y70.557 E79.03628
G1 X75.756 Y69.788 E79.08225
G1 X75.861 Y69.607 E79.09216
G1 X76.219 Y68.738 E79.13671
G1 X76.274 Y68.534 E79.14672
G1 X76.399 Y67.571 E79.19275
G1 X76.399 Y67.428 E79.19953
G1 X76.268 Y66.43 E79.24723
G1 X76.229 Y66.291 E79.25408
G1 X75.844 Y65.361 E79.30178
G1 X75.771 Y65.238 E79.30856
G1 X75.164 Y64.444 E79.35593
G1 X75.061 Y64.341 E79.36283
G1 X74.276 Y63.738 E79.40975
G1 X74.154 Y63.663 E79.41654
G1 X73.211 Y63.269 E79.46497
G1 X73.069 Y63.231 E79.47194
G1 X72.075 Y63.101 E79.51945
G1 X71.931 Y63.101 E79.52628
G1 X70.921 Y63.235 E79.57457
G1 X70.683 Y63.315 E79.58647
G1 X69.853 Y63.66 E79.62907
G1 X69.73 Y63.733 E79.63585
G1 X68.943 Y64.337 E79.68287
G1 X68.841 Y64.439 E79.68971
G0 F3600 X69.107 Y64.008
G1 F1320 X29.389 Y64.008 E81.57217
G0 F3600 X29.337 Y63.966
G1 F1320 X29.337 Y24.56 E83.43984
G0 F3600 X26.67 Y24.56
G1 F1320 X26.67 Y62.952 E85.25946
G0 F3600 X24.003 Y63.706
G1 F1320 X24.003 Y24.56 E87.11481
G0 F3600 X21.336 Y24.56
G1 F1320 X21.336 Y110.44 E91.18515
G0 F3600 X18.669 Y110.44
G1 F1320 X18.669 Y24.56 E95.25549
G0 F3600 X17.06 Y26.67
G1 F1320 X80.94 Y26.67 E98.28313
G0 F3600 X80.01 Y24.56
G1 F1320 X80.01 Y99.307 E101.82582
G0 F3600 X77.343 Y99.576
G1 F1320 X77.343 Y24.56 E105.38125
G0 F3600 X74.676 Y24.56
G1 F1320 X74.676 Y63.843 E107.2431
G0 F3600 X74.891 Y64.008
G1 F1320 X80.94 Y64.008 E107.52979
G0 F3600 X80.94 Y61.341
G1 F1320 X17.059 Y61.341 E110.55748
G0 F3600 X17.059 Y58.674
G1 F1320 X80.94 Y58.674 E113.58516
G0 F3600 X80.94 Y56.007
G1 F1320 X17.059 Y56.007 E116.61285
G0 F3600 X17.059 Y53.34
G1 F1320 X80.94 Y53.34 E119.64053
G0 F3600 X80.94 Y50.673
G1 F1320 X17.059 Y50.673 E122.66821
G0 F3600 X17.059 Y48.006
G1 F1320 X80.94 Y48.006 E125.6959
G0 F3600 X80.94 Y45.339
G1 F1320 X17.059 Y45.339 E128.72358
G0 F3600 X17.059 Y42.672
G1 F1320 X80.94 Y42.672 E131.75127
G0 F3600 X80.94 Y40.005
G1 F1320 X17.059 Y40.005 E134.77895
G0 F3600 X17.059 Y37.338
G1 F1320 X80.94 Y37.338 E137.80664
G0 F3600 X80.94 Y34.671
G1 F1320 X17.059 Y34.671 E140.83432
G0 F3600 X17.059 Y32.004
G1 F1320 X80.94 Y32.004 E143.862
G0 F3600 X80.94 Y29.337
G1 F1320 X17.06 Y29.337 E146.88964
G0 F3600 X32.004 Y24.56
G1 F1320 X32.004 Y79.14 E149.4765
G0 F3600 X29.639 Y80.01
G1 F1320 X13.059 Y80.01 E150.26232
G0 F3600 X13.059 Y77.343
G1 F1320 X86.94 Y77.343 E153.76396
G0 F3600 X86.94 Y80.01
G1 F1320 X38.359 Y80.01 E156.06649
G0 F3600 X37.338 Y79.14
G1 F1320 X37.338 Y24.56 E158.65335
G0 F3600 X34.671 Y24.56
G1 F1320 X34.671 Y79.14 E161.2402
G0 F3600 X38.359 Y82.677
G1 F1320 X86.94 Y82.677 E163.54273
G0 F3600 X86.94 Y85.344
G1 F1320 X38.359 Y85.344 E165.84526
G0 F3600 X38.359 Y88.011
G1 F1320 X86.94 Y88.011 E168.14779
G0 F3600 X86.94 Y90.678
G1 F1320 X38.359 Y90.678 E170.45032
G0 F3600 X38.359 Y93.345
G1 F1320 X86.94 Y93.345 E172.75285
G0 F3600 X86.94 Y96.012
G1 F1320 X38.359 Y96.012 E175.05538
G0 F3600 X38.359 Y98.679
G1 F1320 X86.94 Y98.679 E177.35791
G0 F3600 X86.94 Y101.346
G1 F1320 X82.132 Y101.346 E177.58579
G0 F3600 X81.986 Y104.013
G1 F1320 X86.94 Y104.013 E177.82059
G0 F3600 X86.94 Y106.68
G1 F1320 X13.059 Y106.68 E181.32223
G0 F3600 X13.059 Y104.013
G1 F1320 X29.639 Y104.013 E182.10805
G0 F3600 X29.639 Y101.346
G1 F1320 X13.059 Y101.346 E182.89387
G0 F3600 X13.059 Y98.679
G1 F1320 X29.639 Y98.679 E183.67969
G0 F3600 X29.639 Y96.012
G1 F1320 X13.059 Y96.012 E184.46551
G0 F3600 X13.059 Y93.345
G1 F1320 X29.639 Y93.345 E185.25133
G0 F3600 X29.639 Y90.678
G1 F1320 X13.059 Y90.678 E186.03716
G0 F3600 X13.059 Y88.011
G1 F1320 X29.639 Y88.011 E186.82298
G0 F3600 X29.639 Y85.344
G1 F1320 X13.059 Y85.344 E187.6088
G0 F3600 X13.059 Y82.677
G1 F1320 X29.639 Y82.677 E188.39462
G0 F3600 X26.961 Y72.009
G1 F1320 X71.536 Y72.009 E190.50728
G0 F3600 X72.009 Y72.059
G1 F1320 X72.009 Y101.056 E191.88161
G0 F3600 X72.132 Y101.346
G1 F1320 X75.867 Y101.346 E192.05864
G0 F3600 X76.015 Y104.013
G1 F1320 X71.986 Y104.013 E192.24959
G0 F3600 X72.009 Y103.954
G1 F1320 X72.009 Y110.44 E192.557
G0 F3600 X69.342 Y110.44
G1 F1320 X69.342 Y105.819 E192.77602
G0 F3600 X66.675 Y104.919
G1 F1320 X66.675 Y110.44 E193.03769
G0 F3600 X64.008 Y110.44
G1 F1320 X64.008 Y24.56 E197.10803
G0 F3600 X61.341 Y24.56
G1 F1320 X61.341 Y100.1 E200.6883
